(G-CODE GENERATED BY FLATCAM v8.994 - www.flatcam.org - Version Date: 2020/11/7)

(Name: OpenScrewCounter-PTH.drl_1_cnc)
(Type: G-code from Geometry)
(Units: MM)

(Created on Sunday, 05 February 2023 at 16:00)

(This preprocessor is the default preprocessor used by FlatCAM.)
(It is made to work with MACH3 compatible motion controllers.)


(TOOLS DIAMETER: )
(Tool: 1 -> Dia: 0.762)
(Tool: 2 -> Dia: 0.8)
(Tool: 3 -> Dia: 1.0)
(Tool: 4 -> Dia: 1.1)
(Tool: 5 -> Dia: 1.3)
(Tool: 6 -> Dia: 3.2)

(FEEDRATE Z: )
(Tool: 1 -> Feedrate: 300.0)
(Tool: 2 -> Feedrate: 300.0)
(Tool: 3 -> Feedrate: 300.0)
(Tool: 4 -> Feedrate: 300.0)
(Tool: 5 -> Feedrate: 300.0)
(Tool: 6 -> Feedrate: 300.0)

(FEEDRATE RAPIDS: )
(Tool: 1 -> Feedrate Rapids: 1500)
(Tool: 2 -> Feedrate Rapids: 1500)
(Tool: 3 -> Feedrate Rapids: 1500)
(Tool: 4 -> Feedrate Rapids: 1500)
(Tool: 5 -> Feedrate Rapids: 1500)
(Tool: 6 -> Feedrate Rapids: 1500)

(Z_CUT: )
(Tool: 1 -> Z_Cut: -1.7)
(Tool: 2 -> Z_Cut: -1.7)
(Tool: 3 -> Z_Cut: -1.7)
(Tool: 4 -> Z_Cut: -1.7)
(Tool: 5 -> Z_Cut: -1.7)
(Tool: 6 -> Z_Cut: -1.7)

(Tools Offset: )
(Tool: 1 -> Offset Z: 0.0)
(Tool: 2 -> Offset Z: 0.0)
(Tool: 3 -> Offset Z: 0.0)
(Tool: 4 -> Offset Z: 0.0)
(Tool: 5 -> Offset Z: 0.0)
(Tool: 6 -> Offset Z: 0.0)

(Z_MOVE: )
(Tool: 1 -> Z_Move: 2)
(Tool: 2 -> Z_Move: 2)
(Tool: 3 -> Z_Move: 2)
(Tool: 4 -> Z_Move: 2)
(Tool: 5 -> Z_Move: 2)
(Tool: 6 -> Z_Move: 2)

(Z Toolchange: 3.0 mm)
(X,Y Toolchange: 0.0000, 0.0000 mm)
(Z Start: None mm)
(Z End: 1.0 mm)
(X,Y End: None mm)
(Steps per circle: 64)
(Preprocessor Excellon: default)

(X range:    1.0900 ...   51.2580  mm)
(Y range:    3.5483 ...   82.0153  mm)

(Spindle Speed: 1000 RPM)
G21
G90
G94

G01 F300.00

M5
G00 Z3.0000
T1
G00 X0.0000 Y0.0000                
G00 Z3.0000

G01 F300.00
M03 S1000
G00 X49.0930 Y52.1893
G01 Z-1.7000
G01 Z0
G00 Z2.0000
G00 X49.0930 Y49.6493
G01 Z-1.7000
G01 Z0
G00 Z2.0000
G00 X49.0930 Y47.1093
G01 Z-1.7000
G01 Z0
G00 Z2.0000
G00 X49.0930 Y44.5693
G01 Z-1.7000
G01 Z0
G00 Z2.0000
G00 X49.0930 Y42.0293
G01 Z-1.7000
G01 Z0
G00 Z2.0000
G00 X49.0930 Y39.4893
G01 Z-1.7000
G01 Z0
G00 Z2.0000
G00 X49.0930 Y36.9493
G01 Z-1.7000
G01 Z0
G00 Z2.0000
G00 X49.0930 Y34.4093
G01 Z-1.7000
G01 Z0
G00 Z2.0000
G00 X49.0930 Y31.8693
G01 Z-1.7000
G01 Z0
G00 Z2.0000
G00 X49.0930 Y29.3293
G01 Z-1.7000
G01 Z0
G00 Z2.0000
G00 X49.0930 Y26.7893
G01 Z-1.7000
G01 Z0
G00 Z2.0000
G00 X49.0930 Y24.2493
G01 Z-1.7000
G01 Z0
G00 Z2.0000
G00 X49.0930 Y21.7093
G01 Z-1.7000
G01 Z0
G00 Z2.0000
G00 X49.0930 Y19.1693
G01 Z-1.7000
G01 Z0
G00 Z2.0000
G00 X49.0930 Y16.6293
G01 Z-1.7000
G01 Z0
G00 Z2.0000
G00 X49.0930 Y14.0893
G01 Z-1.7000
G01 Z0
G00 Z2.0000
G00 X49.0930 Y11.5493
G01 Z-1.7000
G01 Z0
G00 Z2.0000
G00 X49.0930 Y9.0093
G01 Z-1.7000
G01 Z0
G00 Z2.0000
G00 X49.0930 Y6.4693
G01 Z-1.7000
G01 Z0
G00 Z2.0000
G00 X49.0930 Y3.9293
G01 Z-1.7000
G01 Z0
G00 Z2.0000
G00 X31.3130 Y3.9293
G01 Z-1.7000
G01 Z0
G00 Z2.0000
G00 X31.3130 Y6.4693
G01 Z-1.7000
G01 Z0
G00 Z2.0000
G00 X31.3130 Y9.0093
G01 Z-1.7000
G01 Z0
G00 Z2.0000
G00 X31.3130 Y11.5493
G01 Z-1.7000
G01 Z0
G00 Z2.0000
G00 X31.3130 Y14.0893
G01 Z-1.7000
G01 Z0
G00 Z2.0000
G00 X31.3130 Y16.6293
G01 Z-1.7000
G01 Z0
G00 Z2.0000
G00 X31.3130 Y19.1693
G01 Z-1.7000
G01 Z0
G00 Z2.0000
G00 X31.3130 Y21.7093
G01 Z-1.7000
G01 Z0
G00 Z2.0000
G00 X31.3130 Y24.2493
G01 Z-1.7000
G01 Z0
G00 Z2.0000
G00 X31.3130 Y26.7893
G01 Z-1.7000
G01 Z0
G00 Z2.0000
G00 X31.3130 Y29.3293
G01 Z-1.7000
G01 Z0
G00 Z2.0000
G00 X31.3130 Y31.8693
G01 Z-1.7000
G01 Z0
G00 Z2.0000
G00 X31.3130 Y34.4093
G01 Z-1.7000
G01 Z0
G00 Z2.0000
G00 X31.3130 Y36.9493
G01 Z-1.7000
G01 Z0
G00 Z2.0000
G00 X23.2160 Y34.0493
G01 Z-1.7000
G01 Z0
G00 Z2.0000
G00 X21.0480 Y25.5343
G01 Z-1.7000
G01 Z0
G00 Z2.0000
G00 X23.5880 Y25.5343
G01 Z-1.7000
G01 Z0
G00 Z2.0000
G00 X23.5880 Y21.7243
G01 Z-1.7000
G01 Z0
G00 Z2.0000
G00 X23.5880 Y17.9143
G01 Z-1.7000
G01 Z0
G00 Z2.0000
G00 X24.0620 Y12.9223
G01 Z-1.7000
G01 Z0
G00 Z2.0000
G00 X24.0620 Y8.4223
G01 Z-1.7000
G01 Z0
G00 Z2.0000
G00 X17.5620 Y8.4223
G01 Z-1.7000
G01 Z0
G00 Z2.0000
G00 X11.1270 Y7.4203
G01 Z-1.7000
G01 Z0
G00 Z2.0000
G00 X3.5270 Y7.4203
G01 Z-1.7000
G01 Z0
G00 Z2.0000
G00 X17.5620 Y12.9223
G01 Z-1.7000
G01 Z0
G00 Z2.0000
G00 X18.5080 Y17.9143
G01 Z-1.7000
G01 Z0
G00 Z2.0000
G00 X21.0480 Y17.9143
G01 Z-1.7000
G01 Z0
G00 Z2.0000
G00 X21.0480 Y21.7243
G01 Z-1.7000
G01 Z0
G00 Z2.0000
G00 X18.5080 Y21.7243
G01 Z-1.7000
G01 Z0
G00 Z2.0000
G00 X18.5080 Y25.5343
G01 Z-1.7000
G01 Z0
G00 Z2.0000
G00 X15.0090 Y28.6783
G01 Z-1.7000
G01 Z0
G00 Z2.0000
G00 X15.0090 Y31.1783
G01 Z-1.7000
G01 Z0
G00 Z2.0000
G00 X10.8070 Y28.9463
G01 Z-1.7000
G01 Z0
G00 Z2.0000
G00 X8.2670 Y28.9463
G01 Z-1.7000
G01 Z0
G00 Z2.0000
G00 X5.7270 Y28.9463
G01 Z-1.7000
G01 Z0
G00 Z2.0000
G00 X7.2780 Y24.3793
G01 Z-1.7000
G01 Z0
G00 Z2.0000
G00 X10.2780 Y19.6793
G01 Z-1.7000
G01 Z0
G00 Z2.0000
G00 X4.2780 Y19.6793
G01 Z-1.7000
G01 Z0
G00 Z2.0000
G00 X1.4900 Y28.5803
G01 Z-1.7000
G01 Z0
G00 Z2.0000
G00 X1.4900 Y31.0803
G01 Z-1.7000
G01 Z0
G00 Z2.0000
G00 X2.3310 Y39.6013
G01 Z-1.7000
G01 Z0
G00 Z2.0000
G00 X2.3310 Y44.1013
G01 Z-1.7000
G01 Z0
G00 Z2.0000
G00 X5.1200 Y51.8293
G01 Z-1.7000
G01 Z0
G00 Z2.0000
G00 X8.8310 Y44.1013
G01 Z-1.7000
G01 Z0
G00 Z2.0000
G00 X8.8310 Y39.6013
G01 Z-1.7000
G01 Z0
G00 Z2.0000
G00 X12.9710 Y39.6013
G01 Z-1.7000
G01 Z0
G00 Z2.0000
G00 X12.9710 Y44.1013
G01 Z-1.7000
G01 Z0
G00 Z2.0000
G00 X19.4710 Y44.1013
G01 Z-1.7000
G01 Z0
G00 Z2.0000
G00 X19.4710 Y39.6013
G01 Z-1.7000
G01 Z0
G00 Z2.0000
G00 X31.3130 Y39.4893
G01 Z-1.7000
G01 Z0
G00 Z2.0000
G00 X31.3130 Y42.0293
G01 Z-1.7000
G01 Z0
G00 Z2.0000
G00 X31.3130 Y44.5693
G01 Z-1.7000
G01 Z0
G00 Z2.0000
G00 X31.3130 Y47.1093
G01 Z-1.7000
G01 Z0
G00 Z2.0000
G00 X31.3130 Y49.6493
G01 Z-1.7000
G01 Z0
G00 Z2.0000
G00 X31.3130 Y52.1893
G01 Z-1.7000
G01 Z0
G00 Z2.0000
G00 X27.6080 Y59.9593
G01 Z-1.7000
G01 Z0
G00 Z2.0000
G00 X25.0680 Y59.9593
G01 Z-1.7000
G01 Z0
G00 Z2.0000
G00 X22.5280 Y59.9593
G01 Z-1.7000
G01 Z0
G00 Z2.0000
G00 X19.9880 Y59.9593
G01 Z-1.7000
G01 Z0
G00 Z2.0000
G00 X17.4480 Y59.9593
G01 Z-1.7000
G01 Z0
G00 Z2.0000
G00 X14.9080 Y59.9593
G01 Z-1.7000
G01 Z0
G00 Z2.0000
G00 X3.9580 Y80.2203
G01 Z-1.7000
G01 Z0
G00 Z2.0000
G00 X14.9080 Y75.1993
G01 Z-1.7000
G01 Z0
G00 Z2.0000
G00 X17.4480 Y75.1993
G01 Z-1.7000
G01 Z0
G00 Z2.0000
G00 X19.9880 Y75.1993
G01 Z-1.7000
G01 Z0
G00 Z2.0000
G00 X22.5280 Y75.1993
G01 Z-1.7000
G01 Z0
G00 Z2.0000
G00 X25.0680 Y75.1993
G01 Z-1.7000
G01 Z0
G00 Z2.0000
G00 X27.6080 Y75.1993
G01 Z-1.7000
G01 Z0
G00 Z2.0000
G00 X49.6580 Y80.4153
G01 Z-1.7000
G01 Z0
G00 Z2.0000
G00 X50.4780 Y73.8493
G01 Z-1.7000
G01 Z0
G00 Z2.0000
G00 X50.4780 Y68.7693
G01 Z-1.7000
G01 Z0
G00 Z2.0000
G00 X48.2280 Y62.2643
G01 Z-1.7000
G01 Z0
G00 Z2.0000
G00 X48.2280 Y59.7243
G01 Z-1.7000
G01 Z0
G00 Z2.0000
G00 X48.2280 Y57.1843
G01 Z-1.7000
G01 Z0
G00 Z2.0000
G00 X37.6630 Y51.9593
G01 Z-1.7000
G01 Z0
G00 Z2.0000
G00 X40.2030 Y51.9593
G01 Z-1.7000
G01 Z0
G00 Z2.0000
G00 X42.7430 Y51.9593
G01 Z-1.7000
G01 Z0
G00 Z2.0000
M05
G00 Z1.00


