(G-CODE GENERATED BY FLATCAM v8.994 - www.flatcam.org - Version Date: 2020/11/7)

(Name: OpenScrewCounter-B_Cu.gbr_iso_combined_cnc)
(Type: G-code from Geometry)
(Units: MM)

(Created on Sunday, 05 February 2023 at 15:59)

(This preprocessor is the default preprocessor used by FlatCAM.)
(It is made to work with MACH3 compatible motion controllers.)

(TOOL DIAMETER: 0.25 mm)
(Feedrate_XY: 150.0 mm/min)
(Feedrate_Z: 60.0 mm/min)
(Feedrate rapids 1500.0 mm/min)

(Z_Cut: -0.07 mm)
(Z_Move: 2.0 mm)
(Z Start: None mm)
(Z End: 3.0 mm)
(X,Y End: None mm)
(Steps per circle: 64)
(Preprocessor Geometry: default)

(X range:   -0.3000 ...   53.0918  mm)
(Y range:   -0.3000 ...   83.5150  mm)

(Spindle Speed: 1000.0 RPM)
G21
G90
G94

G01 F150.00

M5
G00 Z3.0000
G00 X0.0000 Y0.0000
T1
G00 Z3.0000

M03 S1000.0
G01 F150.00
G00 X1.0463 Y2.1569
G01 F60.00
G01 Z-0.0700
G01 F150.00
G01 X1.0372 Y2.1677
G01 X1.0310 Y2.1741
G01 X1.0221 Y2.1820
G01 X1.0149 Y2.1873
G01 X0.9505 Y2.2296
G01 X0.9368 Y2.2370
G01 X0.9253 Y2.2416
G01 X0.9164 Y2.2443
G01 X0.9073 Y2.2463
G01 X0.8981 Y2.2477
G01 X0.8888 Y2.2484
G01 X0.8116 Y2.2491
G01 X0.7992 Y2.2483
G01 X0.7840 Y2.2456
G01 X0.7750 Y2.2431
G01 X0.7663 Y2.2399
G01 X0.7578 Y2.2360
G01 X0.7496 Y2.2316
G01 X0.6817 Y2.1887
G01 X0.6719 Y2.1811
G01 X0.6608 Y2.1703
G01 X0.6511 Y2.1582
G01 X0.6460 Y2.1503
G01 X0.6416 Y2.1422
G01 X0.6089 Y2.0723
G01 X0.6045 Y2.0611
G01 X0.6007 Y2.0465
G01 X0.5989 Y2.0346
G01 X0.5972 Y2.0124
G01 X0.5968 Y2.0029
G01 X0.5969 Y0.2573
G01 X0.5977 Y0.2455
G01 X0.6004 Y0.2308
G01 X0.6228 Y0.1540
G01 X0.6272 Y0.1424
G01 X0.6327 Y0.1313
G01 X0.6393 Y0.1207
G01 X0.6449 Y0.1133
G01 X0.6510 Y0.1063
G01 X0.6577 Y0.0998
G01 X0.7136 Y0.0512
G01 X0.7235 Y0.0435
G01 X0.7368 Y0.0354
G01 X0.7510 Y0.0289
G01 X0.7659 Y0.0243
G01 X0.8242 Y0.0116
G01 X0.8330 Y0.0102
G01 X0.8449 Y0.0094
G01 X2.5965 Y0.0094
G01 X2.6114 Y0.0106
G01 X2.6230 Y0.0128
G01 X2.6999 Y0.0353
G01 X2.7115 Y0.0397
G01 X2.7226 Y0.0452
G01 X2.7331 Y0.0518
G01 X2.7406 Y0.0574
G01 X2.7476 Y0.0635
G01 X2.7541 Y0.0701
G01 X2.8047 Y0.1285
G01 X2.8121 Y0.1384
G01 X2.8199 Y0.1519
G01 X2.8260 Y0.1661
G01 X2.8288 Y0.1750
G01 X2.8309 Y0.1841
G01 X2.8424 Y0.2635
G01 X2.8433 Y0.2790
G01 X2.8422 Y0.2945
G01 X2.8393 Y0.3097
G01 X2.8355 Y0.3216
G01 X2.8320 Y0.3302
G01 X2.8012 Y0.3976
G01 X2.7952 Y0.4084
G01 X2.7863 Y0.4210
G01 X2.7711 Y0.4378
G01 X1.0809 Y2.1279
G01 X1.0596 Y2.1467
G01 X1.0463 Y2.1569
G00 Z2.0000
G00 X2.8474 Y6.2108
G01 F60.00
G01 Z-0.0700
G01 F150.00
G01 X2.8910 Y6.1841
G01 X3.0921 Y6.1008
G01 X3.3037 Y6.0500
G01 X3.5208 Y6.0329
G01 X3.7378 Y6.0500
G01 X3.9495 Y6.1008
G01 X4.1506 Y6.1841
G01 X4.1942 Y6.2108
G01 X4.0009 Y6.4041
G01 X3.9569 Y6.3833
G01 X3.9484 Y6.3797
G01 X3.8503 Y6.3446
G01 X3.8414 Y6.3420
G01 X3.7433 Y6.3174
G01 X3.7342 Y6.3158
G01 X3.6310 Y6.3006
G01 X3.5208 Y6.2952
G01 X3.4105 Y6.3006
G01 X3.3073 Y6.3158
G01 X3.2983 Y6.3174
G01 X3.2001 Y6.3420
G01 X3.1913 Y6.3446
G01 X3.0931 Y6.3797
G01 X3.0847 Y6.3833
G01 X3.0407 Y6.4041
G01 X2.8474 Y6.2108
G00 Z2.0000
G00 X2.0382 Y6.7151
G01 F60.00
G01 Z-0.0700
G01 F150.00
G01 X2.0445 Y6.7219
G01 X2.0512 Y6.7309
G01 X2.0605 Y6.7423
G01 X2.0755 Y6.7584
G01 X2.2984 Y6.9813
G01 X2.2814 Y7.0288
G01 X2.2747 Y7.0499
G01 X2.2490 Y7.1522
G01 X2.2444 Y7.1738
G01 X2.2288 Y7.2782
G01 X2.2270 Y7.2928
G01 X2.2260 Y7.3075
G01 X2.2211 Y7.4055
G01 X2.2208 Y7.4202
G01 X2.2211 Y7.4349
G01 X2.2260 Y7.5329
G01 X2.2270 Y7.5476
G01 X2.2288 Y7.5622
G01 X2.2444 Y7.6666
G01 X2.2490 Y7.6882
G01 X2.2747 Y7.7905
G01 X2.2814 Y7.8115
G01 X2.2984 Y7.8591
G01 X2.0756 Y8.0817
G01 X2.0640 Y8.0939
G01 X2.0382 Y8.1244
G01 X2.0382 Y6.7151
G00 Z2.0000
G00 X2.8474 Y8.6296
G01 F60.00
G01 Z-0.0700
G01 F150.00
G01 X3.0407 Y8.4363
G01 X3.0903 Y8.4596
G01 X3.1417 Y8.4781
G01 X3.1417 Y8.7515
G01 X3.0921 Y8.7396
G01 X2.8910 Y8.6563
G01 X2.8474 Y8.6296
G00 Z2.0000
G00 X3.8999 Y8.4781
G01 F60.00
G01 Z-0.0700
G01 F150.00
G01 X3.9513 Y8.4596
G01 X4.0009 Y8.4363
G01 X4.1942 Y8.6296
G01 X4.1506 Y8.6563
G01 X3.9495 Y8.7396
G01 X3.8999 Y8.7515
G01 X3.8999 Y8.4781
G00 Z2.0000
G00 X4.5369 Y6.9401
G01 F60.00
G01 Z-0.0700
G01 F150.00
G01 X4.7301 Y6.7468
G01 X4.7569 Y6.7904
G01 X4.8401 Y6.9915
G01 X4.8910 Y7.2031
G01 X4.9081 Y7.4202
G01 X4.8910 Y7.6372
G01 X4.8401 Y7.8489
G01 X4.7569 Y8.0500
G01 X4.7301 Y8.0936
G01 X4.5369 Y7.9003
G01 X4.5577 Y7.8563
G01 X4.5613 Y7.8479
G01 X4.5964 Y7.7497
G01 X4.5990 Y7.7409
G01 X4.6235 Y7.6427
G01 X4.6252 Y7.6336
G01 X4.6404 Y7.5305
G01 X4.6458 Y7.4202
G01 X4.6404 Y7.3099
G01 X4.6252 Y7.2068
G01 X4.6235 Y7.1977
G01 X4.5990 Y7.0995
G01 X4.5964 Y7.0907
G01 X4.5613 Y6.9925
G01 X4.5577 Y6.9841
G01 X4.5369 Y6.9401
G00 Z2.0000
G00 X12.4208 Y6.7884
G01 F60.00
G01 Z-0.0700
G01 F150.00
G01 X12.4654 Y6.8397
G01 X12.4810 Y6.8557
G01 X12.4926 Y6.8661
G01 X12.4208 Y6.8661
G01 X12.4208 Y6.7884
G00 Z2.0000
G00 X12.4984 Y7.9743
G01 F60.00
G01 Z-0.0700
G01 F150.00
G01 X12.4473 Y8.0188
G01 X12.4313 Y8.0344
G01 X12.4208 Y8.0462
G01 X12.4208 Y7.9743
G01 X12.4984 Y7.9743
G00 Z2.0000
G00 X14.7393 Y8.3585
G01 F60.00
G01 Z-0.0700
G01 F150.00
G01 X14.7405 Y8.3434
G01 X14.7410 Y8.3210
G01 X14.7397 Y8.2987
G01 X14.7380 Y8.2839
G01 X14.7279 Y8.2137
G01 X14.7238 Y8.1917
G01 X14.7203 Y8.1772
G01 X14.7160 Y8.1629
G01 X14.7082 Y8.1420
G01 X14.6990 Y8.1216
G01 X14.6882 Y8.1021
G01 X14.6802 Y8.0895
G01 X14.6671 Y8.0714
G01 X14.6576 Y8.0599
G01 X14.6062 Y8.0007
G01 X14.5905 Y7.9847
G01 X14.5789 Y7.9743
G01 X14.7255 Y7.9743
G01 X14.7402 Y7.9740
G01 X14.7798 Y7.9717
G01 X14.7945 Y7.9698
G01 X14.8336 Y7.9637
G01 X14.8480 Y7.9604
G01 X14.8864 Y7.9505
G01 X14.9238 Y7.9374
G01 X14.9376 Y7.9321
G01 X14.9510 Y7.9262
G01 X14.9867 Y7.9089
G01 X14.9996 Y7.9016
G01 X15.0272 Y7.8849
G01 X15.0395 Y7.8768
G01 X15.0713 Y7.8531
G01 X15.0827 Y7.8438
G01 X15.1121 Y7.8172
G01 X15.5726 Y7.3568
G01 X15.5713 Y7.3720
G01 X15.5709 Y7.3943
G01 X15.5716 Y7.4092
G01 X15.5739 Y7.4314
G01 X15.5840 Y7.5017
G01 X15.5880 Y7.5237
G01 X15.5937 Y7.5453
G01 X15.5983 Y7.5595
G01 X15.6036 Y7.5734
G01 X15.6129 Y7.5937
G01 X15.6237 Y7.6133
G01 X15.6317 Y7.6259
G01 X15.6448 Y7.6440
G01 X15.6542 Y7.6555
G01 X15.7057 Y7.7147
G01 X15.7213 Y7.7306
G01 X15.7329 Y7.7410
G01 X15.6316 Y7.7411
G01 X15.5795 Y7.7436
G01 X15.5649 Y7.7451
G01 X15.5206 Y7.7515
G01 X15.5061 Y7.7541
G01 X15.4917 Y7.7573
G01 X15.4554 Y7.7664
G01 X15.4412 Y7.7703
G01 X15.4272 Y7.7749
G01 X15.3920 Y7.7875
G01 X15.3783 Y7.7928
G01 X15.3648 Y7.7988
G01 X15.3310 Y7.8148
G01 X15.3178 Y7.8214
G01 X15.3050 Y7.8287
G01 X15.2667 Y7.8518
G01 X15.2485 Y7.8643
G01 X15.2184 Y7.8865
G01 X15.2068 Y7.8956
G01 X15.1957 Y7.9052
G01 X15.1625 Y7.9353
G01 X14.7393 Y8.3585
G00 Z2.0000
G00 X16.5742 Y7.4409
G01 F60.00
G01 Z-0.0700
G01 F150.00
G01 X16.4642 Y7.5697
G01 X16.4539 Y7.5804
G01 X16.4471 Y7.5862
G01 X16.4400 Y7.5915
G01 X16.3780 Y7.6320
G01 X16.3677 Y7.6380
G01 X16.3540 Y7.6442
G01 X16.3426 Y7.6479
G01 X16.3309 Y7.6505
G01 X16.2885 Y7.6567
G01 X16.2764 Y7.6576
G01 X15.9956 Y7.6577
G01 X15.9867 Y7.6573
G01 X15.9749 Y7.6559
G01 X15.9632 Y7.6534
G01 X15.8922 Y7.6326
G01 X15.8777 Y7.6273
G01 X15.8638 Y7.6203
G01 X15.8560 Y7.6152
G01 X15.8486 Y7.6096
G01 X15.8372 Y7.5991
G01 X15.7865 Y7.5409
G01 X15.7771 Y7.5285
G01 X15.7693 Y7.5151
G01 X15.7643 Y7.5038
G01 X15.7596 Y7.4890
G01 X15.7572 Y7.4768
G01 X15.7467 Y7.4034
G01 X15.7459 Y7.3911
G01 X15.7463 Y7.3787
G01 X15.7474 Y7.3694
G01 X15.7499 Y7.3573
G01 X15.7526 Y7.3483
G01 X15.7559 Y7.3396
G01 X15.7894 Y7.2667
G01 X15.7956 Y7.2560
G01 X15.8048 Y7.2436
G01 X15.8181 Y7.2292
G01 X16.1094 Y6.9379
G01 X16.1205 Y6.9281
G01 X16.1327 Y6.9196
G01 X16.2001 Y6.8826
G01 X16.2084 Y6.8785
G01 X16.2169 Y6.8750
G01 X16.2256 Y6.8721
G01 X16.2346 Y6.8699
G01 X16.2436 Y6.8684
G01 X16.2768 Y6.8648
G01 X16.2868 Y6.8644
G01 X16.5688 Y6.8644
G01 X16.5777 Y6.8647
G01 X16.5895 Y6.8661
G01 X16.6011 Y6.8687
G01 X16.6721 Y6.8895
G01 X16.6838 Y6.8936
G01 X16.6951 Y6.8988
G01 X16.7084 Y6.9068
G01 X16.7182 Y6.9144
G01 X16.7293 Y6.9252
G01 X16.7818 Y6.9860
G01 X16.7873 Y6.9935
G01 X16.7922 Y7.0015
G01 X16.7990 Y7.0154
G01 X16.8031 Y7.0271
G01 X16.8066 Y7.0422
G01 X16.8176 Y7.1186
G01 X16.8185 Y7.1341
G01 X16.8178 Y7.1465
G01 X16.8159 Y7.1588
G01 X16.8128 Y7.1708
G01 X16.8096 Y7.1796
G01 X16.7764 Y7.2526
G01 X16.7707 Y7.2631
G01 X16.7621 Y7.2754
G01 X16.7542 Y7.2845
G01 X16.7342 Y7.3042
G01 X16.5742 Y7.4409
G00 Z2.0000
G00 X16.9628 Y7.2657
G01 F60.00
G01 Z-0.0700
G01 F150.00
G01 X16.9694 Y7.2512
G01 X16.9749 Y7.2373
G01 X16.9797 Y7.2232
G01 X16.9838 Y7.2089
G01 X16.9872 Y7.1944
G01 X16.9899 Y7.1797
G01 X16.9925 Y7.1575
G01 X16.9934 Y7.1427
G01 X16.9932 Y7.1203
G01 X16.9914 Y7.0980
G01 X16.9792 Y7.0130
G01 X16.9763 Y6.9984
G01 X16.9728 Y6.9839
G01 X16.9685 Y6.9697
G01 X16.9635 Y6.9556
G01 X16.9547 Y6.9351
G01 X16.9480 Y6.9218
G01 X16.9407 Y6.9088
G01 X16.9285 Y6.8901
G01 X16.9149 Y6.8723
G01 X16.8587 Y6.8074
G01 X16.8430 Y6.7914
G01 X16.8314 Y6.7810
G01 X18.2788 Y6.7810
G01 X18.2695 Y6.7882
G01 X18.2582 Y6.7979
G01 X18.2422 Y6.8135
G01 X18.2274 Y6.8302
G01 X18.2182 Y6.8420
G01 X18.2096 Y6.8541
G01 X18.1676 Y6.9204
G01 X18.1564 Y6.9397
G01 X18.1497 Y6.9530
G01 X18.1409 Y6.9736
G01 X18.1360 Y6.9876
G01 X18.1317 Y7.0019
G01 X18.1281 Y7.0164
G01 X18.1253 Y7.0310
G01 X18.1232 Y7.0457
G01 X18.1218 Y7.0606
G01 X18.1211 Y7.0829
G01 X18.1218 Y7.1614
G01 X18.1233 Y7.1836
G01 X18.1253 Y7.1984
G01 X18.1280 Y7.2131
G01 X18.1314 Y7.2276
G01 X18.1355 Y7.2419
G01 X18.1432 Y7.2634
G01 X18.0665 Y7.2271
G01 X18.0530 Y7.2211
G01 X18.0393 Y7.2158
G01 X17.9469 Y7.1828
G01 X17.9329 Y7.1781
G01 X17.9187 Y7.1742
G01 X17.8235 Y7.1504
G01 X17.8091 Y7.1471
G01 X17.7946 Y7.1446
G01 X17.6976 Y7.1302
G01 X17.6830 Y7.1284
G01 X17.6683 Y7.1273
G01 X17.5702 Y7.1225
G01 X17.5555 Y7.1222
G01 X17.5408 Y7.1225
G01 X17.4428 Y7.1273
G01 X17.4281 Y7.1284
G01 X17.4135 Y7.1302
G01 X17.3164 Y7.1446
G01 X17.3019 Y7.1471
G01 X17.2875 Y7.1504
G01 X17.1923 Y7.1742
G01 X17.1782 Y7.1781
G01 X17.1642 Y7.1828
G01 X17.0718 Y7.2158
G01 X17.0580 Y7.2211
G01 X17.0446 Y7.2271
G01 X16.9628 Y7.2657
G00 Z2.0000
G00 X18.5368 Y7.4409
G01 F60.00
G01 Z-0.0700
G01 F150.00
G01 X18.3770 Y7.3043
G01 X18.3666 Y7.2937
G01 X18.3574 Y7.2820
G01 X18.3137 Y7.2148
G01 X18.3067 Y7.2010
G01 X18.3024 Y7.1893
G01 X18.2987 Y7.1743
G01 X18.2968 Y7.1589
G01 X18.2961 Y7.0817
G01 X18.2970 Y7.0662
G01 X18.2997 Y7.0509
G01 X18.3033 Y7.0390
G01 X18.3094 Y7.0248
G01 X18.3155 Y7.0139
G01 X18.3551 Y6.9513
G01 X18.3645 Y6.9390
G01 X18.3754 Y6.9279
G01 X18.3875 Y6.9183
G01 X18.4008 Y6.9102
G01 X18.4762 Y6.8751
G01 X18.4904 Y6.8703
G01 X18.5022 Y6.8676
G01 X18.5111 Y6.8664
G01 X18.5329 Y6.8648
G01 X18.5423 Y6.8644
G01 X23.0747 Y6.8646
G01 X23.0866 Y6.8657
G01 X23.1011 Y6.8687
G01 X23.1721 Y6.8895
G01 X23.1810 Y6.8924
G01 X23.1923 Y6.8974
G01 X23.2058 Y6.9051
G01 X23.2182 Y6.9144
G01 X23.2272 Y6.9230
G01 X23.2818 Y6.9860
G01 X23.2906 Y6.9988
G01 X23.2977 Y7.0126
G01 X23.3031 Y7.0271
G01 X23.3061 Y7.0392
G01 X23.3172 Y7.1156
G01 X23.3182 Y7.1248
G01 X23.3184 Y7.1372
G01 X23.3170 Y7.1527
G01 X23.3145 Y7.1648
G01 X23.3096 Y7.1796
G01 X23.2777 Y7.2498
G01 X23.2737 Y7.2579
G01 X23.2691 Y7.2657
G01 X23.2639 Y7.2730
G01 X23.2582 Y7.2800
G01 X23.2521 Y7.2866
G01 X23.2318 Y7.3063
G01 X23.0742 Y7.4409
G01 X22.9642 Y7.5697
G01 X22.9560 Y7.5783
G01 X22.9471 Y7.5862
G01 X22.9375 Y7.5932
G01 X22.8780 Y7.6320
G01 X22.8703 Y7.6366
G01 X22.8596 Y7.6419
G01 X22.8455 Y7.6471
G01 X22.8338 Y7.6499
G01 X22.7916 Y7.6563
G01 X22.7825 Y7.6573
G01 X22.7733 Y7.6577
G01 X18.8318 Y7.6575
G01 X18.8170 Y7.6559
G01 X18.8054 Y7.6534
G01 X18.7315 Y7.6317
G01 X18.7230 Y7.6287
G01 X18.7148 Y7.6250
G01 X18.7069 Y7.6208
G01 X18.6968 Y7.6143
G01 X18.6874 Y7.6068
G01 X18.6597 Y7.5827
G01 X18.6509 Y7.5742
G01 X18.5368 Y7.4409
G00 Z2.0000
G00 X16.5234 Y5.6728
G01 F60.00
G01 Z-0.0700
G01 F150.00
G01 X15.9114 Y5.6729
G01 X15.8792 Y5.6744
G01 X15.8645 Y5.6755
G01 X15.8499 Y5.6773
G01 X15.8179 Y5.6821
G01 X15.7963 Y5.6867
G01 X15.7650 Y5.6946
G01 X15.7509 Y5.6989
G01 X15.7205 Y5.7097
G01 X15.7068 Y5.7150
G01 X15.6933 Y5.7209
G01 X15.6576 Y5.7382
G01 X15.6234 Y5.7583
G01 X15.6110 Y5.7662
G01 X15.5989 Y5.7746
G01 X15.5673 Y5.7986
G01 X15.5561 Y5.8082
G01 X15.5270 Y5.8351
G01 X15.2857 Y6.0763
G01 X15.2862 Y6.0588
G01 X15.2861 Y5.9878
G01 X15.2857 Y5.9729
G01 X15.2846 Y5.9581
G01 X15.2815 Y5.9359
G01 X15.2768 Y5.9141
G01 X15.2705 Y5.8926
G01 X15.2626 Y5.8717
G01 X15.2531 Y5.8515
G01 X15.2422 Y5.8320
G01 X15.1998 Y5.7660
G01 X15.1870 Y5.7477
G01 X15.1729 Y5.7304
G01 X15.1575 Y5.7142
G01 X15.1410 Y5.6991
G01 X15.1233 Y5.6854
G01 X15.1048 Y5.6730
G01 X15.0919 Y5.6655
G01 X15.0786 Y5.6587
G01 X15.0007 Y5.6232
G01 X14.9875 Y5.6179
G01 X14.9671 Y5.6112
G01 X14.9464 Y5.6059
G01 X14.9324 Y5.6032
G01 X14.7806 Y5.5816
G01 X14.5434 Y5.5140
G01 X14.3176 Y5.4149
G01 X14.1074 Y5.2860
G01 X13.9165 Y5.1299
G01 X13.7487 Y4.9492
G01 X13.6069 Y4.7475
G01 X13.4938 Y4.5284
G01 X13.4115 Y4.2959
G01 X13.3615 Y4.0545
G01 X13.3442 Y3.8004
G01 X13.3445 Y3.7773
G01 X13.3670 Y3.5249
G01 X13.4221 Y3.2845
G01 X13.5092 Y3.0538
G01 X13.6269 Y2.8371
G01 X13.7729 Y2.6384
G01 X13.8093 Y2.6008
G01 X13.8192 Y2.5901
G01 X13.8284 Y2.5791
G01 X13.8372 Y2.5675
G01 X13.8492 Y2.5495
G01 X13.8565 Y2.5370
G01 X13.8632 Y2.5242
G01 X13.9007 Y2.4477
G01 X13.9066 Y2.4339
G01 X13.9118 Y2.4199
G01 X13.9163 Y2.4056
G01 X13.9201 Y2.3911
G01 X13.9232 Y2.3765
G01 X13.9255 Y2.3617
G01 X13.9277 Y2.3393
G01 X13.9281 Y2.3169
G01 X13.9268 Y2.2944
G01 X13.9251 Y2.2796
G01 X13.9150 Y2.2093
G01 X13.9125 Y2.1946
G01 X13.9074 Y2.1728
G01 X13.9007 Y2.1515
G01 X13.8925 Y2.1308
G01 X13.8827 Y2.1107
G01 X13.8714 Y2.0914
G01 X13.8588 Y2.0729
G01 X13.8448 Y2.0555
G01 X13.7933 Y1.9963
G01 X13.7777 Y1.9803
G01 X13.7661 Y1.9699
G01 X16.5468 Y1.9699
G01 X16.5380 Y1.9775
G01 X16.5275 Y1.9875
G01 X16.5126 Y2.0035
G01 X16.4627 Y2.0639
G01 X16.4535 Y2.0756
G01 X16.4408 Y2.0940
G01 X16.4295 Y2.1133
G01 X16.4197 Y2.1334
G01 X16.4115 Y2.1542
G01 X16.4048 Y2.1755
G01 X16.4012 Y2.1899
G01 X16.3983 Y2.2046
G01 X16.3962 Y2.2193
G01 X16.3878 Y2.2898
G01 X16.3864 Y2.3046
G01 X16.3857 Y2.3270
G01 X16.3867 Y2.3493
G01 X16.3893 Y2.3715
G01 X16.3935 Y2.3934
G01 X16.3973 Y2.4078
G01 X16.4017 Y2.4221
G01 X16.4069 Y2.4360
G01 X16.4127 Y2.4497
G01 X16.4470 Y2.5203
G01 X16.4535 Y2.5330
G01 X16.4607 Y2.5454
G01 X16.4684 Y2.5574
G01 X16.4767 Y2.5690
G01 X16.4901 Y2.5857
G01 X16.5781 Y2.6825
G01 X16.7177 Y2.8857
G01 X16.8285 Y3.1060
G01 X16.9084 Y3.3393
G01 X16.9401 Y3.5009
G01 X16.9559 Y3.5812
G01 X16.9701 Y3.8274
G01 X16.9507 Y4.0732
G01 X16.8982 Y4.3142
G01 X16.8135 Y4.5457
G01 X16.6981 Y4.7637
G01 X16.5542 Y4.9639
G01 X16.4722 Y5.0504
G01 X16.4585 Y5.0667
G01 X16.4500 Y5.0781
G01 X16.4420 Y5.0899
G01 X16.4347 Y5.1021
G01 X16.4279 Y5.1145
G01 X16.3882 Y5.1964
G01 X16.3824 Y5.2101
G01 X16.3773 Y5.2240
G01 X16.3729 Y5.2382
G01 X16.3692 Y5.2526
G01 X16.3649 Y5.2744
G01 X16.3630 Y5.2891
G01 X16.3618 Y5.3039
G01 X16.3614 Y5.3262
G01 X16.3627 Y5.3484
G01 X16.3644 Y5.3632
G01 X16.3745 Y5.4334
G01 X16.3770 Y5.4481
G01 X16.3821 Y5.4699
G01 X16.3888 Y5.4912
G01 X16.3971 Y5.5120
G01 X16.4068 Y5.5321
G01 X16.4181 Y5.5514
G01 X16.4307 Y5.5698
G01 X16.4447 Y5.5872
G01 X16.4962 Y5.6464
G01 X16.5118 Y5.6624
G01 X16.5234 Y5.6728
G00 Z2.0000
G00 X13.1694 Y3.7704
G01 F60.00
G01 Z-0.0700
G01 F150.00
G01 X13.1691 Y3.8048
G01 X13.1877 Y4.0783
G01 X13.2425 Y4.3431
G01 X13.3328 Y4.5980
G01 X13.4565 Y4.8376
G01 X13.6124 Y5.0596
G01 X13.7965 Y5.2577
G01 X14.0058 Y5.4290
G01 X14.2364 Y5.5703
G01 X14.4840 Y5.6790
G01 X14.7441 Y5.7531
G01 X14.9006 Y5.7754
G01 X14.9094 Y5.7770
G01 X14.9181 Y5.7792
G01 X14.9321 Y5.7842
G01 X15.0022 Y5.8161
G01 X15.0157 Y5.8237
G01 X15.0258 Y5.8310
G01 X15.0373 Y5.8414
G01 X15.0435 Y5.8483
G01 X15.0492 Y5.8557
G01 X15.0944 Y5.9258
G01 X15.1001 Y5.9369
G01 X15.1056 Y5.9514
G01 X15.1092 Y5.9664
G01 X15.1108 Y5.9788
G01 X15.1111 Y5.9881
G01 X15.1112 Y6.0621
G01 X15.1099 Y6.0773
G01 X15.1068 Y6.0922
G01 X15.1019 Y6.1066
G01 X15.0953 Y6.1203
G01 X15.0619 Y6.1767
G01 X15.0550 Y6.1872
G01 X15.0492 Y6.1945
G01 X15.0428 Y6.2014
G01 X14.5307 Y6.7133
G01 X14.5215 Y6.7209
G01 X14.5091 Y6.7290
G01 X14.4442 Y6.7645
G01 X14.4303 Y6.7710
G01 X14.4157 Y6.7758
G01 X14.4067 Y6.7778
G01 X14.3976 Y6.7791
G01 X14.3675 Y6.7823
G01 X14.3575 Y6.7827
G01 X12.7523 Y6.7827
G01 X12.7434 Y6.7821
G01 X12.7345 Y6.7810
G01 X12.7201 Y6.7776
G01 X12.6460 Y6.7557
G01 X12.6345 Y6.7511
G01 X12.6235 Y6.7453
G01 X12.6107 Y6.7366
G01 X12.6036 Y6.7306
G01 X12.5969 Y6.7241
G01 X12.5462 Y6.6659
G01 X12.5403 Y6.6586
G01 X12.5350 Y6.6509
G01 X12.5289 Y6.6400
G01 X12.5250 Y6.6315
G01 X12.5218 Y6.6227
G01 X12.5185 Y6.6106
G01 X12.5071 Y6.5583
G01 X12.5052 Y6.5465
G01 X12.5043 Y6.5317
G01 X12.5043 Y6.3788
G01 X12.5000 Y6.3390
G01 X12.4606 Y6.2341
G01 X12.3947 Y6.1462
G01 X12.3068 Y6.0803
G01 X12.2020 Y6.0410
G01 X12.1621 Y6.0367
G01 X10.0794 Y6.0367
G01 X10.0396 Y6.0410
G01 X9.9347 Y6.0803
G01 X9.8468 Y6.1462
G01 X9.7809 Y6.2341
G01 X9.7416 Y6.3390
G01 X9.7373 Y6.3788
G01 X9.7373 Y8.4616
G01 X9.7416 Y8.5014
G01 X9.7809 Y8.6063
G01 X9.8468 Y8.6942
G01 X9.9347 Y8.7600
G01 X10.0396 Y8.7994
G01 X10.0794 Y8.8037
G01 X12.1621 Y8.8037
G01 X12.2020 Y8.7994
G01 X12.3068 Y8.7600
G01 X12.3947 Y8.6942
G01 X12.4606 Y8.6063
G01 X12.5000 Y8.5014
G01 X12.5043 Y8.4616
G01 X12.5043 Y8.3087
G01 X12.5048 Y8.2968
G01 X12.5060 Y8.2880
G01 X12.5085 Y8.2763
G01 X12.5293 Y8.2054
G01 X12.5323 Y8.1965
G01 X12.5372 Y8.1851
G01 X12.5450 Y8.1717
G01 X12.5543 Y8.1593
G01 X12.5651 Y8.1482
G01 X12.6211 Y8.0996
G01 X12.6309 Y8.0919
G01 X12.6388 Y8.0868
G01 X12.6498 Y8.0809
G01 X12.6584 Y8.0773
G01 X12.6673 Y8.0743
G01 X12.6764 Y8.0719
G01 X12.7316 Y8.0600
G01 X12.7434 Y8.0583
G01 X12.7553 Y8.0577
G01 X14.3163 Y8.0577
G01 X14.3252 Y8.0580
G01 X14.3341 Y8.0590
G01 X14.3486 Y8.0620
G01 X14.4226 Y8.0837
G01 X14.4342 Y8.0880
G01 X14.4453 Y8.0935
G01 X14.4559 Y8.1001
G01 X14.4633 Y8.1057
G01 X14.4725 Y8.1140
G01 X14.4789 Y8.1208
G01 X14.5254 Y8.1745
G01 X14.5312 Y8.1818
G01 X14.5397 Y8.1947
G01 X14.5440 Y8.2030
G01 X14.5476 Y8.2116
G01 X14.5515 Y8.2234
G01 X14.5542 Y8.2355
G01 X14.5647 Y8.3088
G01 X14.5659 Y8.3212
G01 X14.5658 Y8.3336
G01 X14.5640 Y8.3490
G01 X14.5603 Y8.3641
G01 X14.5547 Y8.3786
G01 X14.5225 Y8.4487
G01 X14.5146 Y8.4619
G01 X14.5051 Y8.4741
G01 X14.4938 Y8.4862
G01 X14.2078 Y8.7722
G01 X14.2006 Y8.7788
G01 X14.1855 Y8.7917
G01 X14.1775 Y8.7980
G01 X14.1415 Y8.8380
G01 X14.1229 Y8.8570
G01 X14.1059 Y8.8775
G01 X14.0699 Y8.9174
G01 X14.0645 Y8.9261
G01 X14.0514 Y8.9451
G01 X14.0471 Y8.9506
G01 X14.0212 Y9.0014
G01 X13.9896 Y9.0566
G01 X13.9860 Y9.0662
G01 X13.9772 Y9.0875
G01 X13.9742 Y9.0938
G01 X13.9575 Y9.1552
G01 X13.9399 Y9.2095
G01 X13.9390 Y9.2164
G01 X13.9349 Y9.2390
G01 X13.9326 Y9.2490
G01 X13.9298 Y9.3027
G01 X13.9273 Y9.3292
G01 X13.9270 Y9.3558
G01 X13.9242 Y9.4095
G01 X13.9254 Y9.4197
G01 X13.9269 Y9.4394
G01 X13.9273 Y9.4492
G01 X13.9273 Y10.6788
G01 X13.9261 Y10.6936
G01 X13.9231 Y10.7082
G01 X13.9014 Y10.7821
G01 X13.8957 Y10.7966
G01 X13.8915 Y10.8049
G01 X13.8849 Y10.8154
G01 X13.8773 Y10.8252
G01 X13.8710 Y10.8321
G01 X13.8642 Y10.8384
G01 X13.8081 Y10.8869
G01 X13.8007 Y10.8926
G01 X13.7928 Y10.8977
G01 X13.7846 Y10.9022
G01 X13.7761 Y10.9061
G01 X13.7673 Y10.9093
G01 X13.7583 Y10.9119
G01 X13.7000 Y10.9246
G01 X13.6882 Y10.9263
G01 X13.6793 Y10.9268
G01 X10.0303 Y10.9268
G01 X10.0214 Y10.9265
G01 X10.0125 Y10.9255
G01 X9.9980 Y10.9226
G01 X9.9240 Y10.9009
G01 X9.9098 Y10.8953
G01 X9.8989 Y10.8896
G01 X9.8886 Y10.8829
G01 X9.8628 Y10.8622
G01 X9.8528 Y10.8533
G01 X8.4156 Y9.4160
G01 X8.4060 Y9.4047
G01 X8.4009 Y9.3973
G01 X8.3964 Y9.3897
G01 X8.3595 Y9.3219
G01 X8.3547 Y9.3106
G01 X8.3511 Y9.2989
G01 X8.3491 Y9.2899
G01 X8.3478 Y9.2808
G01 X8.3446 Y9.2507
G01 X8.3442 Y9.2407
G01 X8.3442 Y5.2531
G01 X8.3450 Y5.2383
G01 X8.3464 Y5.2295
G01 X8.3484 Y5.2208
G01 X8.3701 Y5.1469
G01 X8.3757 Y5.1326
G01 X8.3814 Y5.1217
G01 X8.3881 Y5.1114
G01 X8.4087 Y5.0856
G01 X8.4177 Y5.0756
G01 X11.3665 Y2.1268
G01 X11.3776 Y2.1170
G01 X11.3848 Y2.1117
G01 X11.3924 Y2.1070
G01 X11.4600 Y2.0701
G01 X11.4712 Y2.0650
G01 X11.4828 Y2.0610
G01 X11.4917 Y2.0588
G01 X11.5008 Y2.0573
G01 X11.5339 Y2.0537
G01 X11.5440 Y2.0533
G01 X13.5064 Y2.0534
G01 X13.5212 Y2.0546
G01 X13.5358 Y2.0576
G01 X13.6068 Y2.0784
G01 X13.6156 Y2.0813
G01 X13.6270 Y2.0863
G01 X13.6378 Y2.0923
G01 X13.6504 Y2.1014
G01 X13.6597 Y2.1097
G01 X13.6660 Y2.1165
G01 X13.7125 Y2.1701
G01 X13.7183 Y2.1774
G01 X13.7236 Y2.1851
G01 X13.7283 Y2.1931
G01 X13.7324 Y2.2015
G01 X13.7358 Y2.2101
G01 X13.7386 Y2.2190
G01 X13.7413 Y2.2311
G01 X13.7526 Y2.3107
G01 X13.7531 Y2.3231
G01 X13.7527 Y2.3325
G01 X13.7511 Y2.3448
G01 X13.7482 Y2.3570
G01 X13.7442 Y2.3688
G01 X13.7404 Y2.3773
G01 X13.7048 Y2.4498
G01 X13.6970 Y2.4627
G01 X13.6916 Y2.4699
G01 X13.6857 Y2.4768
G01 X13.6389 Y2.5252
G01 X13.4788 Y2.7431
G01 X13.3498 Y2.9808
G01 X13.2542 Y3.2338
G01 X13.1938 Y3.4974
G01 X13.1694 Y3.7704
G00 Z2.0000
G00 X10.6156 Y1.1925
G01 F60.00
G01 Z-0.0700
G01 F150.00
G01 X10.6169 Y1.1773
G01 X10.6173 Y1.1550
G01 X10.6160 Y1.1327
G01 X10.6143 Y1.1179
G01 X10.6042 Y1.0476
G01 X10.6002 Y1.0256
G01 X10.5945 Y1.0040
G01 X10.5899 Y0.9898
G01 X10.5846 Y0.9759
G01 X10.5753 Y0.9556
G01 X10.5645 Y0.9360
G01 X10.5565 Y0.9234
G01 X10.5434 Y0.9053
G01 X10.5339 Y0.8938
G01 X10.4825 Y0.8346
G01 X10.4668 Y0.8187
G01 X10.4552 Y0.8083
G01 X42.6310 Y0.8083
G01 X42.6194 Y0.8181
G01 X42.6033 Y0.8336
G01 X42.5933 Y0.8446
G01 X42.5792 Y0.8620
G01 X42.5367 Y0.9188
G01 X42.5239 Y0.9372
G01 X42.5126 Y0.9565
G01 X42.5059 Y0.9697
G01 X42.4998 Y0.9834
G01 X42.4945 Y0.9973
G01 X42.4877 Y1.0186
G01 X42.4825 Y1.0403
G01 X42.4790 Y1.0624
G01 X42.4776 Y1.0772
G01 X42.4721 Y1.1554
G01 X42.4719 Y1.1778
G01 X42.4727 Y1.1933
G01 X42.3034 Y1.0240
G01 X42.2742 Y0.9971
G01 X42.2573 Y0.9829
G01 X42.2255 Y0.9592
G01 X42.2132 Y0.9511
G01 X42.1856 Y0.9344
G01 X42.1662 Y0.9237
G01 X42.1371 Y0.9098
G01 X42.1236 Y0.9039
G01 X42.0864 Y0.8902
G01 X42.0653 Y0.8835
G01 X42.0340 Y0.8756
G01 X42.0196 Y0.8723
G01 X41.9805 Y0.8662
G01 X41.9585 Y0.8637
G01 X41.9263 Y0.8621
G01 X41.9115 Y0.8617
G01 X11.1759 Y0.8617
G01 X11.1612 Y0.8621
G01 X11.1290 Y0.8637
G01 X11.1070 Y0.8662
G01 X11.0678 Y0.8723
G01 X11.0535 Y0.8756
G01 X11.0222 Y0.8835
G01 X11.0011 Y0.8902
G01 X10.9639 Y0.9039
G01 X10.9504 Y0.9098
G01 X10.9213 Y0.9237
G01 X10.9019 Y0.9344
G01 X10.8743 Y0.9511
G01 X10.8620 Y0.9592
G01 X10.8302 Y0.9829
G01 X10.8133 Y0.9971
G01 X10.7841 Y1.0240
G01 X10.6156 Y1.1925
G00 Z2.0000
G00 X13.9332 Y11.0102
G01 F60.00
G01 Z-0.0700
G01 F150.00
G01 X13.9844 Y10.9657
G01 X14.0003 Y10.9501
G01 X14.0106 Y10.9385
G01 X14.0106 Y11.0102
G01 X13.9332 Y11.0102
G00 Z2.0000
G00 X14.0106 Y12.1959
G01 F60.00
G01 Z-0.0700
G01 F150.00
G01 X13.9662 Y12.1448
G01 X13.9506 Y12.1288
G01 X13.9390 Y12.1184
G01 X14.0106 Y12.1184
G01 X14.0106 Y12.1959
G00 Z2.0000
G00 X16.1848 Y12.7051
G01 F60.00
G01 Z-0.0700
G01 F150.00
G01 X16.1677 Y12.9222
G01 X16.1848 Y13.1393
G01 X16.1876 Y13.1506
G01 X16.2357 Y13.3510
G01 X16.3190 Y13.5522
G01 X16.4328 Y13.7379
G01 X16.5742 Y13.9035
G01 X16.7398 Y14.0449
G01 X16.9255 Y14.1587
G01 X17.1267 Y14.2420
G01 X17.3384 Y14.2929
G01 X17.5555 Y14.3099
G01 X17.7726 Y14.2929
G01 X17.9844 Y14.2420
G01 X18.1856 Y14.1587
G01 X18.3712 Y14.0449
G01 X18.5368 Y13.9035
G01 X18.6469 Y13.7747
G01 X18.6550 Y13.7660
G01 X18.6639 Y13.7581
G01 X18.6736 Y13.7512
G01 X18.7330 Y13.7124
G01 X18.7434 Y13.7063
G01 X18.7515 Y13.7024
G01 X18.7627 Y13.6981
G01 X18.7772 Y13.6944
G01 X18.8225 Y13.6876
G01 X18.8377 Y13.6867
G01 X22.7793 Y13.6868
G01 X22.7911 Y13.6879
G01 X22.8057 Y13.6909
G01 X22.8824 Y13.7136
G01 X22.8908 Y13.7168
G01 X22.9016 Y13.7221
G01 X22.9093 Y13.7267
G01 X22.9190 Y13.7337
G01 X22.9536 Y13.7637
G01 X22.9622 Y13.7724
G01 X23.0742 Y13.9035
G01 X23.2398 Y14.0449
G01 X23.4255 Y14.1587
G01 X23.6267 Y14.2420
G01 X23.8384 Y14.2929
G01 X24.0555 Y14.3099
G01 X24.2244 Y14.2966
G01 X24.2333 Y14.2963
G01 X24.2423 Y14.2965
G01 X24.2570 Y14.2984
G01 X24.3323 Y14.3142
G01 X24.3467 Y14.3185
G01 X24.3604 Y14.3245
G01 X24.3708 Y14.3304
G01 X24.3783 Y14.3355
G01 X24.4102 Y14.3593
G01 X24.4194 Y14.3673
G01 X24.6256 Y14.5734
G01 X24.6322 Y14.5806
G01 X24.6451 Y14.5956
G01 X24.6514 Y14.6037
G01 X24.6914 Y14.6397
G01 X24.7104 Y14.6582
G01 X24.7309 Y14.6753
G01 X24.7708 Y14.7112
G01 X24.7795 Y14.7167
G01 X24.7985 Y14.7298
G01 X24.8040 Y14.7340
G01 X24.8548 Y14.7599
G01 X24.9100 Y14.7916
G01 X24.9196 Y14.7951
G01 X24.9409 Y14.8040
G01 X24.9472 Y14.8070
G01 X25.0086 Y14.8236
G01 X25.0629 Y14.8412
G01 X25.0697 Y14.8421
G01 X25.0924 Y14.8463
G01 X25.1024 Y14.8486
G01 X25.1561 Y14.8514
G01 X25.1826 Y14.8538
G01 X25.2092 Y14.8542
G01 X25.2629 Y14.8570
G01 X25.2731 Y14.8558
G01 X25.2928 Y14.8542
G01 X25.3026 Y14.8538
G01 X29.9597 Y14.8538
G01 X29.9686 Y14.8541
G01 X29.9775 Y14.8551
G01 X29.9921 Y14.8581
G01 X30.0660 Y14.8798
G01 X30.0747 Y14.8829
G01 X30.0858 Y14.8881
G01 X30.0939 Y14.8927
G01 X30.1015 Y14.8978
G01 X30.1260 Y14.9169
G01 X30.2235 Y15.0054
G01 X30.3967 Y15.1141
G01 X30.4348 Y15.1296
G01 X30.4428 Y15.1336
G01 X30.4505 Y15.1382
G01 X30.4602 Y15.1451
G01 X30.5159 Y15.1890
G01 X30.5252 Y15.1972
G01 X30.5337 Y15.2062
G01 X30.5413 Y15.2161
G01 X30.5463 Y15.2239
G01 X30.5520 Y15.2349
G01 X30.5567 Y15.2465
G01 X30.5798 Y15.3136
G01 X30.5839 Y15.3285
G01 X30.5862 Y15.3439
G01 X30.5866 Y15.3563
G01 X30.5854 Y15.3718
G01 X30.5830 Y15.3840
G01 X30.5662 Y15.4529
G01 X30.5627 Y15.4646
G01 X30.5581 Y15.4759
G01 X30.5525 Y15.4867
G01 X30.5458 Y15.4969
G01 X30.5360 Y15.5087
G01 X30.5296 Y15.5151
G01 X30.4748 Y15.5657
G01 X30.4676 Y15.5718
G01 X30.4601 Y15.5773
G01 X30.4521 Y15.5823
G01 X30.4438 Y15.5867
G01 X30.3334 Y15.6393
G01 X30.1673 Y15.7587
G01 X30.0250 Y15.9055
G01 X29.9110 Y16.0752
G01 X29.8288 Y16.2625
G01 X29.7810 Y16.4613
G01 X29.7693 Y16.6654
G01 X29.7938 Y16.8684
G01 X29.8540 Y17.0639
G01 X29.9477 Y17.2456
G01 X30.0722 Y17.4078
G01 X30.2235 Y17.5454
G01 X30.3967 Y17.6541
G01 X30.4348 Y17.6696
G01 X30.4428 Y17.6736
G01 X30.4505 Y17.6782
G01 X30.4602 Y17.6851
G01 X30.5159 Y17.7290
G01 X30.5252 Y17.7372
G01 X30.5357 Y17.7486
G01 X30.5430 Y17.7587
G01 X30.5493 Y17.7694
G01 X30.5556 Y17.7835
G01 X30.5798 Y17.8536
G01 X30.5825 Y17.8625
G01 X30.5855 Y17.8777
G01 X30.5864 Y17.8870
G01 X30.5866 Y17.8963
G01 X30.5858 Y17.9087
G01 X30.5837 Y17.9209
G01 X30.5662 Y17.9929
G01 X30.5617 Y18.0075
G01 X30.5554 Y18.0214
G01 X30.5509 Y18.0293
G01 X30.5458 Y18.0369
G01 X30.5360 Y18.0487
G01 X30.5296 Y18.0551
G01 X30.4748 Y18.1057
G01 X30.4676 Y18.1118
G01 X30.4601 Y18.1173
G01 X30.4466 Y18.1253
G01 X30.3334 Y18.1793
G01 X30.1673 Y18.2987
G01 X30.1363 Y18.3306
G01 X30.1297 Y18.3366
G01 X30.1203 Y18.3439
G01 X30.1103 Y18.3503
G01 X30.0485 Y18.3853
G01 X30.0402 Y18.3896
G01 X30.0256 Y18.3953
G01 X30.0105 Y18.3993
G01 X30.0012 Y18.4007
G01 X29.9725 Y18.4040
G01 X29.9582 Y18.4048
G01 X27.7975 Y18.4048
G01 X27.7826 Y18.4039
G01 X27.7680 Y18.4013
G01 X27.6912 Y18.3789
G01 X27.6825 Y18.3757
G01 X27.6741 Y18.3720
G01 X27.6608 Y18.3644
G01 X27.6509 Y18.3571
G01 X27.6299 Y18.3402
G01 X27.6224 Y18.3336
G01 X26.7189 Y17.4303
G01 X26.7123 Y17.4231
G01 X26.6994 Y17.4080
G01 X26.6931 Y17.4000
G01 X26.6531 Y17.3640
G01 X26.6341 Y17.3454
G01 X26.6161 Y17.3305
G01 X26.5737 Y17.2924
G01 X26.5650 Y17.2870
G01 X26.5460 Y17.2739
G01 X26.5405 Y17.2696
G01 X26.4839 Y17.2405
G01 X26.4345 Y17.2121
G01 X26.4279 Y17.2097
G01 X26.4066 Y17.2010
G01 X26.3973 Y17.1967
G01 X26.3359 Y17.1800
G01 X26.2817 Y17.1624
G01 X26.2747 Y17.1615
G01 X26.2521 Y17.1573
G01 X26.2421 Y17.1551
G01 X26.1852 Y17.1520
G01 X26.1619 Y17.1498
G01 X26.1353 Y17.1495
G01 X26.0816 Y17.1467
G01 X26.0714 Y17.1479
G01 X26.0517 Y17.1494
G01 X26.0419 Y17.1498
G01 X24.6663 Y17.1498
G01 X24.6574 Y17.1495
G01 X24.6456 Y17.1481
G01 X24.6311 Y17.1448
G01 X24.5569 Y17.1228
G01 X24.5424 Y17.1167
G01 X24.5288 Y17.1088
G01 X24.5187 Y17.1013
G01 X24.4848 Y17.0718
G01 X24.4766 Y17.0632
G01 X24.4478 Y17.0300
G01 X24.2918 Y16.9004
G01 X24.1166 Y16.7981
G01 X23.9272 Y16.7257
G01 X23.7284 Y16.6853
G01 X23.5257 Y16.6779
G01 X23.3245 Y16.7036
G01 X23.1302 Y16.7619
G01 X22.9481 Y16.8512
G01 X22.7829 Y16.9689
G01 X22.6393 Y17.1121
G01 X22.5112 Y17.2901
G01 X22.5052 Y17.2971
G01 X22.4987 Y17.3036
G01 X22.4918 Y17.3096
G01 X22.4832 Y17.3159
G01 X22.4449 Y17.3510
G01 X22.4324 Y17.3602
G01 X22.4216 Y17.3663
G01 X22.4103 Y17.3714
G01 X22.3955 Y17.3761
G01 X22.3864 Y17.3781
G01 X22.3134 Y17.3908
G01 X22.3010 Y17.3920
G01 X22.2855 Y17.3918
G01 X22.2763 Y17.3908
G01 X22.2671 Y17.3890
G01 X22.2522 Y17.3847
G01 X22.1810 Y17.3549
G01 X22.1702 Y17.3497
G01 X22.1625 Y17.3452
G01 X22.1551 Y17.3401
G01 X22.1459 Y17.3325
G01 X22.1354 Y17.3219
G01 X22.1076 Y17.2901
G01 X22.1001 Y17.2806
G01 X22.0951 Y17.2731
G01 X22.0402 Y17.1836
G01 X21.9075 Y17.0304
G01 X21.7515 Y16.9009
G01 X21.5764 Y16.7985
G01 X21.4208 Y16.7391
G01 X21.4208 Y17.0162
G01 X21.5014 Y17.0544
G01 X21.5783 Y17.1004
G01 X21.5885 Y17.1072
G01 X21.6604 Y17.1606
G01 X21.7268 Y17.2207
G01 X21.7355 Y17.2293
G01 X21.7955 Y17.2958
G01 X21.8490 Y17.3676
G01 X21.8558 Y17.3778
G01 X21.8987 Y17.4494
G01 X21.9045 Y17.4602
G01 X21.9426 Y17.5412
G01 X21.9729 Y17.6255
G01 X21.9765 Y17.6372
G01 X21.9981 Y17.7241
G01 X22.0114 Y17.8127
G01 X22.0126 Y17.8249
G01 X22.0168 Y17.9143
G01 X22.0126 Y18.0038
G01 X22.0114 Y18.0160
G01 X21.9981 Y18.1045
G01 X21.9765 Y18.1914
G01 X21.9729 Y18.2032
G01 X21.9426 Y18.2874
G01 X21.9031 Y18.3712
G01 X21.8987 Y18.3793
G01 X21.8558 Y18.4508
G01 X21.8490 Y18.4610
G01 X21.7955 Y18.5329
G01 X21.7334 Y18.6016
G01 X21.7268 Y18.6080
G01 X21.6650 Y18.6640
G01 X21.6580 Y18.6699
G01 X21.5860 Y18.7233
G01 X21.5783 Y18.7283
G01 X21.5480 Y18.7464
G01 X21.5480 Y19.0410
G01 X21.7011 Y18.9612
G01 X21.8633 Y18.8395
G01 X22.0033 Y18.6930
G01 X22.1051 Y18.5438
G01 X22.1142 Y18.5320
G01 X22.1203 Y18.5255
G01 X22.1268 Y18.5195
G01 X22.1864 Y18.4706
G01 X22.1966 Y18.4635
G01 X22.2074 Y18.4574
G01 X22.2217 Y18.4514
G01 X22.2336 Y18.4478
G01 X22.2489 Y18.4451
G01 X22.3225 Y18.4366
G01 X22.3380 Y18.4361
G01 X22.3534 Y18.4376
G01 X22.3686 Y18.4410
G01 X22.3803 Y18.4451
G01 X22.3888 Y18.4488
G01 X22.4553 Y18.4815
G01 X22.4683 Y18.4893
G01 X22.4802 Y18.4986
G01 X22.4910 Y18.5093
G01 X22.5137 Y18.5361
G01 X22.5196 Y18.5436
G01 X22.6012 Y18.6695
G01 X22.7377 Y18.8195
G01 X22.8969 Y18.9453
G01 X23.0745 Y19.0433
G01 X23.2657 Y19.1110
G01 X23.4654 Y19.1466
G01 X23.6682 Y19.1490
G01 X23.8687 Y19.1184
G01 X24.0615 Y19.0553
G01 X24.2414 Y18.9617
G01 X24.4036 Y18.8399
G01 X24.4855 Y18.7543
G01 X24.4920 Y18.7482
G01 X24.4990 Y18.7426
G01 X24.5114 Y18.7344
G01 X24.5784 Y18.6960
G01 X24.5870 Y18.6920
G01 X24.5959 Y18.6887
G01 X24.6112 Y18.6847
G01 X24.6205 Y18.6832
G01 X24.6501 Y18.6797
G01 X24.6648 Y18.6788
G01 X25.7012 Y18.6788
G01 X25.7131 Y18.6794
G01 X25.7249 Y18.6811
G01 X25.7364 Y18.6839
G01 X25.8045 Y18.7039
G01 X25.8133 Y18.7068
G01 X25.8218 Y18.7103
G01 X25.8326 Y18.7160
G01 X25.8429 Y18.7228
G01 X25.8687 Y18.7434
G01 X25.8763 Y18.7500
G01 X26.9081 Y19.7817
G01 X26.9335 Y19.7983
G01 X26.9469 Y19.8079
G01 X26.9732 Y19.8290
G01 X27.0002 Y19.8429
G01 X27.0145 Y19.8510
G01 X27.0428 Y19.8692
G01 X27.0712 Y19.8802
G01 X27.0863 Y19.8868
G01 X27.1164 Y19.9020
G01 X27.1489 Y19.9109
G01 X27.1645 Y19.9160
G01 X27.1929 Y19.9268
G01 X27.2261 Y19.9323
G01 X27.2422 Y19.9357
G01 X27.2716 Y19.9436
G01 X27.3019 Y19.9452
G01 X27.3183 Y19.9469
G01 X27.3516 Y19.9520
G01 X27.3820 Y19.9504
G01 X27.3984 Y19.9504
G01 X27.4321 Y19.9520
G01 X27.4654 Y19.9469
G01 X27.4817 Y19.9452
G01 X27.5121 Y19.9436
G01 X27.5229 Y19.9408
G01 X27.5326 Y19.9392
G01 X27.5684 Y19.9345
G01 X27.5815 Y19.9338
G01 X29.9627 Y19.9339
G01 X29.9775 Y19.9351
G01 X29.9892 Y19.9373
G01 X30.0631 Y19.9589
G01 X30.0718 Y19.9618
G01 X30.0803 Y19.9654
G01 X30.0886 Y19.9695
G01 X30.0964 Y19.9743
G01 X30.1040 Y19.9797
G01 X30.1260 Y19.9969
G01 X30.2235 Y20.0854
G01 X30.3967 Y20.1941
G01 X30.4355 Y20.2098
G01 X30.4434 Y20.2138
G01 X30.4511 Y20.2184
G01 X30.4608 Y20.2253
G01 X30.5165 Y20.2693
G01 X30.5281 Y20.2796
G01 X30.5344 Y20.2865
G01 X30.5419 Y20.2963
G01 X30.5485 Y20.3069
G01 X30.5527 Y20.3152
G01 X30.5573 Y20.3267
G01 X30.5814 Y20.3968
G01 X30.5852 Y20.4118
G01 X30.5870 Y20.4272
G01 X30.5870 Y20.4428
G01 X30.5850 Y20.4581
G01 X30.5661 Y20.5361
G01 X30.5612 Y20.5506
G01 X30.5546 Y20.5643
G01 X30.5482 Y20.5747
G01 X30.5407 Y20.5844
G01 X30.5302 Y20.5954
G01 X30.4731 Y20.6480
G01 X30.4607 Y20.6576
G01 X30.4527 Y20.6626
G01 X30.4444 Y20.6669
G01 X30.3336 Y20.7198
G01 X30.1677 Y20.8390
G01 X30.0254 Y20.9858
G01 X29.9114 Y21.1555
G01 X29.8347 Y21.3302
G01 X30.1180 Y21.3302
G01 X30.1338 Y21.2967
G01 X30.1380 Y21.2885
G01 X30.1796 Y21.2191
G01 X30.1849 Y21.2115
G01 X30.2313 Y21.1490
G01 X30.2372 Y21.1420
G01 X30.2916 Y21.0821
G01 X30.3538 Y21.0256
G01 X30.3610 Y21.0199
G01 X30.4260 Y20.9718
G01 X30.5007 Y20.9271
G01 X30.5794 Y20.8898
G01 X30.6555 Y20.8624
G01 X30.6643 Y20.8597
G01 X30.7458 Y20.8394
G01 X30.8258 Y20.8273
G01 X30.8380 Y20.8261
G01 X30.9158 Y20.8224
G01 X31.6948 Y20.8223
G01 X31.7757 Y20.8261
G01 X31.7879 Y20.8273
G01 X31.8679 Y20.8394
G01 X31.9523 Y20.8605
G01 X32.0286 Y20.8876
G01 X32.0399 Y20.8923
G01 X32.1130 Y20.9271
G01 X32.1851 Y20.9701
G01 X32.1926 Y20.9753
G01 X32.2527 Y21.0199
G01 X32.2622 Y21.0277
G01 X32.3220 Y21.0821
G01 X32.3785 Y21.1443
G01 X32.3843 Y21.1514
G01 X32.4288 Y21.2115
G01 X32.4340 Y21.2191
G01 X32.4756 Y21.2885
G01 X32.4799 Y21.2967
G01 X32.4958 Y21.3303
G01 X32.7763 Y21.3303
G01 X32.7592 Y21.2749
G01 X32.6655 Y21.0933
G01 X32.5411 Y20.9312
G01 X32.3899 Y20.7936
G01 X32.2168 Y20.6850
G01 X32.1782 Y20.6693
G01 X32.1703 Y20.6653
G01 X32.1626 Y20.6608
G01 X32.1529 Y20.6539
G01 X32.0972 Y20.6099
G01 X32.0878 Y20.6017
G01 X32.0773 Y20.5903
G01 X32.0700 Y20.5803
G01 X32.0623 Y20.5668
G01 X32.0574 Y20.5554
G01 X32.0333 Y20.4853
G01 X32.0306 Y20.4764
G01 X32.0285 Y20.4673
G01 X32.0272 Y20.4581
G01 X32.0265 Y20.4426
G01 X32.0273 Y20.4302
G01 X32.0293 Y20.4180
G01 X32.0469 Y20.3460
G01 X32.0493 Y20.3372
G01 X32.0549 Y20.3230
G01 X32.0606 Y20.3122
G01 X32.0691 Y20.2996
G01 X32.0770 Y20.2902
G01 X32.0835 Y20.2838
G01 X32.1383 Y20.2332
G01 X32.1454 Y20.2271
G01 X32.1530 Y20.2216
G01 X32.1609 Y20.2166
G01 X32.1693 Y20.2123
G01 X32.2803 Y20.1593
G01 X32.4464 Y20.0400
G01 X32.5887 Y19.8931
G01 X32.7027 Y19.7234
G01 X32.7849 Y19.5362
G01 X32.8326 Y19.3373
G01 X32.8444 Y19.1332
G01 X32.8198 Y18.9302
G01 X32.7597 Y18.7347
G01 X32.6659 Y18.5530
G01 X32.5414 Y18.3908
G01 X32.3902 Y18.2532
G01 X32.2170 Y18.1445
G01 X32.1788 Y18.1290
G01 X32.1709 Y18.1250
G01 X32.1632 Y18.1205
G01 X32.1535 Y18.1136
G01 X32.0978 Y18.0696
G01 X32.0884 Y18.0614
G01 X32.0799 Y18.0524
G01 X32.0706 Y18.0400
G01 X32.0630 Y18.0265
G01 X32.0580 Y18.0151
G01 X32.0339 Y17.9450
G01 X32.0312 Y17.9361
G01 X32.0291 Y17.9270
G01 X32.0278 Y17.9178
G01 X32.0271 Y17.9023
G01 X32.0279 Y17.8900
G01 X32.0299 Y17.8777
G01 X32.0475 Y17.8057
G01 X32.0500 Y17.7969
G01 X32.0543 Y17.7855
G01 X32.0612 Y17.7719
G01 X32.0679 Y17.7617
G01 X32.0776 Y17.7500
G01 X32.0841 Y17.7435
G01 X32.1389 Y17.6929
G01 X32.1460 Y17.6868
G01 X32.1536 Y17.6813
G01 X32.1616 Y17.6763
G01 X32.1699 Y17.6720
G01 X32.2803 Y17.6193
G01 X32.4464 Y17.5000
G01 X32.5887 Y17.3531
G01 X32.7027 Y17.1834
G01 X32.7849 Y16.9962
G01 X32.8326 Y16.7973
G01 X32.8444 Y16.5932
G01 X32.8198 Y16.3902
G01 X32.7597 Y16.1947
G01 X32.6659 Y16.0130
G01 X32.5414 Y15.8508
G01 X32.3902 Y15.7132
G01 X32.2170 Y15.6045
G01 X32.1788 Y15.5890
G01 X32.1709 Y15.5850
G01 X32.1632 Y15.5805
G01 X32.1535 Y15.5736
G01 X32.0978 Y15.5296
G01 X32.0884 Y15.5214
G01 X32.0779 Y15.5100
G01 X32.0706 Y15.5000
G01 X32.0630 Y15.4865
G01 X32.0580 Y15.4751
G01 X32.0339 Y15.4050
G01 X32.0312 Y15.3961
G01 X32.0291 Y15.3870
G01 X32.0278 Y15.3778
G01 X32.0271 Y15.3623
G01 X32.0279 Y15.3500
G01 X32.0299 Y15.3377
G01 X32.0475 Y15.2657
G01 X32.0500 Y15.2569
G01 X32.0555 Y15.2427
G01 X32.0612 Y15.2319
G01 X32.0679 Y15.2217
G01 X32.0776 Y15.2100
G01 X32.0841 Y15.2035
G01 X32.1389 Y15.1529
G01 X32.1460 Y15.1468
G01 X32.1536 Y15.1413
G01 X32.1616 Y15.1363
G01 X32.1699 Y15.1320
G01 X32.2803 Y15.0793
G01 X32.4464 Y14.9600
G01 X32.5887 Y14.8131
G01 X32.7027 Y14.6434
G01 X32.7849 Y14.4562
G01 X32.8326 Y14.2573
G01 X32.8444 Y14.0532
G01 X32.8198 Y13.8502
G01 X32.7597 Y13.6547
G01 X32.6659 Y13.4730
G01 X32.5414 Y13.3108
G01 X32.3902 Y13.1732
G01 X32.2170 Y13.0645
G01 X32.1788 Y13.0490
G01 X32.1709 Y13.0450
G01 X32.1632 Y13.0405
G01 X32.1535 Y13.0336
G01 X32.0978 Y12.9896
G01 X32.0862 Y12.9793
G01 X32.0779 Y12.9700
G01 X32.0690 Y12.9574
G01 X32.0630 Y12.9465
G01 X32.0580 Y12.9351
G01 X32.0339 Y12.8650
G01 X32.0312 Y12.8561
G01 X32.0282 Y12.8409
G01 X32.0273 Y12.8316
G01 X32.0271 Y12.8223
G01 X32.0279 Y12.8100
G01 X32.0299 Y12.7977
G01 X32.0475 Y12.7257
G01 X32.0500 Y12.7169
G01 X32.0543 Y12.7055
G01 X32.0612 Y12.6919
G01 X32.0679 Y12.6817
G01 X32.0776 Y12.6700
G01 X32.0841 Y12.6635
G01 X32.1389 Y12.6129
G01 X32.1460 Y12.6068
G01 X32.1536 Y12.6013
G01 X32.1616 Y12.5963
G01 X32.1699 Y12.5920
G01 X32.2803 Y12.5393
G01 X32.4464 Y12.4200
G01 X32.5887 Y12.2731
G01 X32.7027 Y12.1034
G01 X32.7849 Y11.9162
G01 X32.8326 Y11.7173
G01 X32.8444 Y11.5132
G01 X32.8198 Y11.3102
G01 X32.7597 Y11.1147
G01 X32.6659 Y10.9330
G01 X32.5414 Y10.7708
G01 X32.3902 Y10.6332
G01 X32.2170 Y10.5245
G01 X32.1782 Y10.5088
G01 X32.1702 Y10.5048
G01 X32.1626 Y10.5002
G01 X32.1529 Y10.4933
G01 X32.0971 Y10.4493
G01 X32.0856 Y10.4390
G01 X32.0773 Y10.4297
G01 X32.0683 Y10.4171
G01 X32.0623 Y10.4062
G01 X32.0574 Y10.3948
G01 X32.0314 Y10.3189
G01 X32.0291 Y10.3098
G01 X32.0275 Y10.3007
G01 X32.0264 Y10.2852
G01 X32.0273 Y10.2697
G01 X32.0293 Y10.2575
G01 X32.0468 Y10.1855
G01 X32.0503 Y10.1738
G01 X32.0562 Y10.1597
G01 X32.0621 Y10.1490
G01 X32.0710 Y10.1366
G01 X32.0813 Y10.1254
G01 X32.1406 Y10.0706
G01 X32.1530 Y10.0610
G01 X32.1609 Y10.0561
G01 X32.1692 Y10.0517
G01 X32.2801 Y9.9989
G01 X32.4460 Y9.8796
G01 X32.5882 Y9.7328
G01 X32.7023 Y9.5632
G01 X32.7790 Y9.3883
G01 X32.4958 Y9.3883
G01 X32.4799 Y9.4220
G01 X32.4756 Y9.4301
G01 X32.4340 Y9.4995
G01 X32.4288 Y9.5071
G01 X32.3843 Y9.5672
G01 X32.3785 Y9.5744
G01 X32.3220 Y9.6365
G01 X32.2622 Y9.6910
G01 X32.2527 Y9.6988
G01 X32.1926 Y9.7433
G01 X32.1851 Y9.7485
G01 X32.1130 Y9.7916
G01 X32.0399 Y9.8263
G01 X32.0286 Y9.8310
G01 X31.9523 Y9.8581
G01 X31.8679 Y9.8793
G01 X31.7879 Y9.8913
G01 X31.7757 Y9.8925
G01 X31.6948 Y9.8963
G01 X30.9158 Y9.8963
G01 X30.8380 Y9.8925
G01 X30.8258 Y9.8913
G01 X30.7458 Y9.8793
G01 X30.6643 Y9.8590
G01 X30.6555 Y9.8562
G01 X30.5794 Y9.8288
G01 X30.5007 Y9.7916
G01 X30.4260 Y9.7468
G01 X30.3610 Y9.6988
G01 X30.3538 Y9.6930
G01 X30.2916 Y9.6365
G01 X30.2372 Y9.5767
G01 X30.2313 Y9.5696
G01 X30.1849 Y9.5071
G01 X30.1796 Y9.4995
G01 X30.1380 Y9.4301
G01 X30.1338 Y9.4220
G01 X30.1179 Y9.3883
G01 X29.8374 Y9.3883
G01 X29.8544 Y9.4437
G01 X29.9482 Y9.6253
G01 X30.0726 Y9.7875
G01 X30.2238 Y9.9250
G01 X30.3969 Y10.0336
G01 X30.4354 Y10.0493
G01 X30.4434 Y10.0533
G01 X30.4536 Y10.0595
G01 X30.4608 Y10.0648
G01 X30.5213 Y10.1127
G01 X30.5323 Y10.1236
G01 X30.5419 Y10.1358
G01 X30.5485 Y10.1463
G01 X30.5551 Y10.1604
G01 X30.5804 Y10.2333
G01 X30.5831 Y10.2422
G01 X30.5851 Y10.2513
G01 X30.5870 Y10.2667
G01 X30.5872 Y10.2760
G01 X30.5867 Y10.2853
G01 X30.5855 Y10.2945
G01 X30.5837 Y10.3037
G01 X30.5652 Y10.3785
G01 X30.5612 Y10.3900
G01 X30.5546 Y10.4038
G01 X30.5464 Y10.4166
G01 X30.5407 Y10.4238
G01 X30.5345 Y10.4306
G01 X30.4754 Y10.4854
G01 X30.4633 Y10.4953
G01 X30.4554 Y10.5004
G01 X30.4472 Y10.5050
G01 X30.3334 Y10.5593
G01 X30.1673 Y10.6787
G01 X30.0172 Y10.8335
G01 X30.0083 Y10.8419
G01 X29.9960 Y10.8511
G01 X29.9881 Y10.8558
G01 X29.9793 Y10.8603
G01 X29.9408 Y10.8867
G01 X29.9272 Y10.8940
G01 X29.9128 Y10.8996
G01 X29.8978 Y10.9033
G01 X29.8553 Y10.9102
G01 X29.8454 Y10.9114
G01 X29.8354 Y10.9118
G01 X29.0149 Y10.9118
G01 X29.0000 Y10.9109
G01 X28.9854 Y10.9083
G01 X28.9086 Y10.8858
G01 X28.8943 Y10.8803
G01 X28.8834 Y10.8746
G01 X28.8732 Y10.8679
G01 X28.8473 Y10.8472
G01 X28.8374 Y10.8383
G01 X27.3144 Y9.3153
G01 X27.3048 Y9.3039
G01 X27.2982 Y9.2941
G01 X27.2583 Y9.2212
G01 X27.2546 Y9.2128
G01 X27.2516 Y9.2041
G01 X27.2479 Y9.1892
G01 X27.2466 Y9.1801
G01 X27.2437 Y9.1533
G01 X27.2430 Y9.1399
G01 X27.2430 Y6.6978
G01 X27.2448 Y6.6695
G01 X27.2469 Y6.6529
G01 X27.2436 Y6.6119
G01 X27.2430 Y6.5932
G01 X27.2399 Y6.5655
G01 X27.2348 Y6.5034
G01 X27.2305 Y6.4840
G01 X27.2079 Y6.4214
G01 X27.1887 Y6.3621
G01 X27.1801 Y6.3441
G01 X27.1436 Y6.2884
G01 X27.1102 Y6.2333
G01 X27.0988 Y6.2196
G01 X27.0471 Y6.1705
G01 X26.7004 Y5.8238
G01 X26.6816 Y5.8024
G01 X26.6714 Y5.7892
G01 X26.6400 Y5.7625
G01 X26.6264 Y5.7498
G01 X26.6046 Y5.7324
G01 X26.5571 Y5.6921
G01 X26.5404 Y5.6814
G01 X26.4839 Y5.6550
G01 X26.4245 Y5.6247
G01 X26.4058 Y5.6181
G01 X26.3405 Y5.6045
G01 X26.2779 Y5.5892
G01 X26.2603 Y5.5876
G01 X26.1889 Y5.5894
G01 X16.7861 Y5.5894
G01 X16.7712 Y5.5885
G01 X16.7624 Y5.5871
G01 X16.7537 Y5.5851
G01 X16.6827 Y5.5643
G01 X16.6682 Y5.5591
G01 X16.6570 Y5.5536
G01 X16.6465 Y5.5470
G01 X16.6367 Y5.5394
G01 X16.6277 Y5.5309
G01 X16.5731 Y5.4678
G01 X16.5659 Y5.4577
G01 X16.5584 Y5.4441
G01 X16.5527 Y5.4297
G01 X16.5488 Y5.4147
G01 X16.5372 Y5.3352
G01 X16.5364 Y5.3229
G01 X16.5368 Y5.3105
G01 X16.5384 Y5.2982
G01 X16.5412 Y5.2862
G01 X16.5440 Y5.2774
G01 X16.5489 Y5.2660
G01 X16.5835 Y5.1945
G01 X16.5878 Y5.1868
G01 X16.5927 Y5.1794
G01 X16.5981 Y5.1723
G01 X16.6040 Y5.1656
G01 X16.6893 Y5.0757
G01 X16.8471 Y4.8561
G01 X16.9737 Y4.6171
G01 X17.0666 Y4.3631
G01 X17.1243 Y4.0989
G01 X17.1455 Y3.8293
G01 X17.1299 Y3.5593
G01 X17.1118 Y3.4672
G01 X17.0778 Y3.2939
G01 X16.9902 Y3.0380
G01 X16.8687 Y2.7964
G01 X16.7155 Y2.5735
G01 X16.6223 Y2.4710
G01 X16.6167 Y2.4641
G01 X16.6116 Y2.4567
G01 X16.6043 Y2.4438
G01 X16.5733 Y2.3799
G01 X16.5695 Y2.3714
G01 X16.5664 Y2.3627
G01 X16.5640 Y2.3537
G01 X16.5614 Y2.3384
G01 X16.5607 Y2.3260
G01 X16.5612 Y2.3136
G01 X16.5704 Y2.2369
G01 X16.5721 Y2.2278
G01 X16.5744 Y2.2187
G01 X16.5798 Y2.2042
G01 X16.5869 Y2.1904
G01 X16.5938 Y2.1801
G01 X16.6428 Y2.1205
G01 X16.6489 Y2.1137
G01 X16.6554 Y2.1073
G01 X16.6624 Y2.1014
G01 X16.6698 Y2.0961
G01 X16.6829 Y2.0884
G01 X16.6968 Y2.0824
G01 X16.7733 Y2.0588
G01 X16.7823 Y2.0564
G01 X16.7914 Y2.0547
G01 X16.8007 Y2.0537
G01 X16.8099 Y2.0533
G01 X41.5435 Y2.0533
G01 X41.5584 Y2.0542
G01 X41.5730 Y2.0568
G01 X41.6498 Y2.0793
G01 X41.6641 Y2.0849
G01 X41.6749 Y2.0905
G01 X41.6852 Y2.0973
G01 X41.7110 Y2.1179
G01 X41.7210 Y2.1268
G01 X43.7128 Y4.1187
G01 X43.7206 Y4.1277
G01 X43.7291 Y4.1399
G01 X43.7661 Y4.2074
G01 X43.7702 Y4.2156
G01 X43.7737 Y4.2242
G01 X43.7781 Y4.2388
G01 X43.7807 Y4.2540
G01 X43.7839 Y4.2841
G01 X43.7843 Y4.2941
G01 X43.7843 Y11.5739
G01 X43.7825 Y11.6023
G01 X43.7803 Y11.6189
G01 X43.7836 Y11.6598
G01 X43.7843 Y11.6785
G01 X43.7874 Y11.7062
G01 X43.7925 Y11.7683
G01 X43.7946 Y11.7780
G01 X43.7967 Y11.7877
G01 X43.8180 Y11.8463
G01 X43.8386 Y11.9096
G01 X43.8472 Y11.9276
G01 X43.8837 Y11.9834
G01 X43.9171 Y12.0385
G01 X43.9285 Y12.0521
G01 X43.9802 Y12.1012
G01 X46.3714 Y14.4925
G01 X46.3902 Y14.5138
G01 X46.4004 Y14.5271
G01 X46.4318 Y14.5537
G01 X46.4454 Y14.5664
G01 X46.4672 Y14.5838
G01 X46.5147 Y14.6241
G01 X46.5314 Y14.6349
G01 X46.5918 Y14.6632
G01 X46.6472 Y14.6915
G01 X46.6660 Y14.6981
G01 X46.7313 Y14.7118
G01 X46.7938 Y14.7271
G01 X46.8115 Y14.7287
G01 X46.8828 Y14.7268
G01 X47.6232 Y14.7269
G01 X47.6380 Y14.7281
G01 X47.6526 Y14.7311
G01 X47.7236 Y14.7519
G01 X47.7322 Y14.7547
G01 X47.7405 Y14.7582
G01 X47.7486 Y14.7623
G01 X47.7563 Y14.7669
G01 X47.7637 Y14.7721
G01 X47.7730 Y14.7798
G01 X47.8048 Y14.8091
G01 X47.8114 Y14.8156
G01 X47.8175 Y14.8226
G01 X47.8522 Y14.8678
G01 X48.0035 Y15.0054
G01 X48.1767 Y15.1141
G01 X48.2148 Y15.1296
G01 X48.2228 Y15.1336
G01 X48.2305 Y15.1382
G01 X48.2402 Y15.1451
G01 X48.3007 Y15.1930
G01 X48.3096 Y15.2016
G01 X48.3176 Y15.2111
G01 X48.3247 Y15.2213
G01 X48.3307 Y15.2321
G01 X48.3367 Y15.2465
G01 X48.3608 Y15.3165
G01 X48.3645 Y15.3316
G01 X48.3659 Y15.3408
G01 X48.3665 Y15.3501
G01 X48.3661 Y15.3656
G01 X48.3649 Y15.3748
G01 X48.3630 Y15.3840
G01 X48.3462 Y15.4529
G01 X48.3417 Y15.4675
G01 X48.3368 Y15.4787
G01 X48.3309 Y15.4893
G01 X48.3239 Y15.4994
G01 X48.3160 Y15.5087
G01 X48.3096 Y15.5151
G01 X48.2548 Y15.5657
G01 X48.2476 Y15.5718
G01 X48.2401 Y15.5773
G01 X48.2321 Y15.5823
G01 X48.2238 Y15.5867
G01 X48.1134 Y15.6393
G01 X47.9473 Y15.7587
G01 X47.8050 Y15.9055
G01 X47.6910 Y16.0752
G01 X47.6088 Y16.2625
G01 X47.5610 Y16.4613
G01 X47.5493 Y16.6654
G01 X47.5738 Y16.8684
G01 X47.6340 Y17.0639
G01 X47.7277 Y17.2456
G01 X47.8522 Y17.4078
G01 X48.0035 Y17.5454
G01 X48.1767 Y17.6541
G01 X48.2148 Y17.6696
G01 X48.2228 Y17.6736
G01 X48.2305 Y17.6782
G01 X48.2402 Y17.6851
G01 X48.2959 Y17.7290
G01 X48.3075 Y17.7394
G01 X48.3157 Y17.7486
G01 X48.3230 Y17.7587
G01 X48.3307 Y17.7721
G01 X48.3356 Y17.7835
G01 X48.3617 Y17.8595
G01 X48.3639 Y17.8685
G01 X48.3655 Y17.8777
G01 X48.3666 Y17.8932
G01 X48.3661 Y17.9056
G01 X48.3637 Y17.9209
G01 X48.3462 Y17.9929
G01 X48.3427 Y18.0046
G01 X48.3368 Y18.0187
G01 X48.3292 Y18.0319
G01 X48.3201 Y18.0441
G01 X48.3118 Y18.0530
G01 X48.2524 Y18.1078
G01 X48.2401 Y18.1173
G01 X48.2321 Y18.1223
G01 X48.2238 Y18.1267
G01 X48.1134 Y18.1793
G01 X47.9473 Y18.2987
G01 X47.8050 Y18.4455
G01 X47.6910 Y18.6152
G01 X47.6088 Y18.8025
G01 X47.5610 Y19.0013
G01 X47.5493 Y19.2054
G01 X47.5738 Y19.4084
G01 X47.6340 Y19.6039
G01 X47.7277 Y19.7856
G01 X47.8522 Y19.9478
G01 X48.0035 Y20.0854
G01 X48.1767 Y20.1941
G01 X48.2155 Y20.2098
G01 X48.2234 Y20.2138
G01 X48.2311 Y20.2184
G01 X48.2408 Y20.2253
G01 X48.2965 Y20.2693
G01 X48.3081 Y20.2796
G01 X48.3164 Y20.2889
G01 X48.3237 Y20.2989
G01 X48.3299 Y20.3096
G01 X48.3351 Y20.3209
G01 X48.3623 Y20.3998
G01 X48.3657 Y20.4149
G01 X48.3672 Y20.4303
G01 X48.3670 Y20.4428
G01 X48.3650 Y20.4581
G01 X48.3468 Y20.5332
G01 X48.3443 Y20.5420
G01 X48.3388 Y20.5562
G01 X48.3315 Y20.5696
G01 X48.3227 Y20.5820
G01 X48.3124 Y20.5933
G01 X48.2531 Y20.6480
G01 X48.2407 Y20.6576
G01 X48.2327 Y20.6626
G01 X48.2244 Y20.6669
G01 X48.1136 Y20.7198
G01 X47.9477 Y20.8390
G01 X47.8054 Y20.9858
G01 X47.6914 Y21.1555
G01 X47.6147 Y21.3303
G01 X47.8979 Y21.3303
G01 X47.9138 Y21.2967
G01 X47.9180 Y21.2885
G01 X47.9596 Y21.2191
G01 X47.9649 Y21.2115
G01 X48.0094 Y21.1514
G01 X48.0151 Y21.1443
G01 X48.0716 Y21.0821
G01 X48.1315 Y21.0277
G01 X48.1410 Y21.0199
G01 X48.2010 Y20.9753
G01 X48.2086 Y20.9701
G01 X48.2807 Y20.9271
G01 X48.3538 Y20.8923
G01 X48.3651 Y20.8876
G01 X48.4414 Y20.8605
G01 X48.5258 Y20.8394
G01 X48.6058 Y20.8273
G01 X48.6180 Y20.8261
G01 X48.6988 Y20.8223
G01 X49.4779 Y20.8224
G01 X49.5557 Y20.8261
G01 X49.5679 Y20.8273
G01 X49.6479 Y20.8394
G01 X49.7294 Y20.8597
G01 X49.7381 Y20.8624
G01 X49.8143 Y20.8898
G01 X49.8930 Y20.9271
G01 X49.9676 Y20.9718
G01 X50.0327 Y21.0199
G01 X50.0399 Y21.0256
G01 X50.1020 Y21.0821
G01 X50.1565 Y21.1420
G01 X50.1624 Y21.1490
G01 X50.2088 Y21.2115
G01 X50.2140 Y21.2191
G01 X50.2556 Y21.2885
G01 X50.2599 Y21.2967
G01 X50.2758 Y21.3303
G01 X50.5563 Y21.3303
G01 X50.5392 Y21.2749
G01 X50.4455 Y21.0933
G01 X50.3211 Y20.9312
G01 X50.1699 Y20.7936
G01 X49.9968 Y20.6850
G01 X49.9582 Y20.6693
G01 X49.9503 Y20.6653
G01 X49.9426 Y20.6608
G01 X49.9329 Y20.6539
G01 X49.8772 Y20.6099
G01 X49.8678 Y20.6017
G01 X49.8573 Y20.5903
G01 X49.8500 Y20.5803
G01 X49.8423 Y20.5668
G01 X49.8374 Y20.5554
G01 X49.8133 Y20.4853
G01 X49.8106 Y20.4764
G01 X49.8085 Y20.4673
G01 X49.8072 Y20.4581
G01 X49.8065 Y20.4426
G01 X49.8073 Y20.4302
G01 X49.8093 Y20.4180
G01 X49.8269 Y20.3460
G01 X49.8293 Y20.3372
G01 X49.8349 Y20.3230
G01 X49.8406 Y20.3122
G01 X49.8473 Y20.3020
G01 X49.8570 Y20.2902
G01 X49.8635 Y20.2838
G01 X49.9183 Y20.2332
G01 X49.9254 Y20.2271
G01 X49.9330 Y20.2216
G01 X49.9409 Y20.2166
G01 X49.9493 Y20.2123
G01 X50.0603 Y20.1593
G01 X50.2264 Y20.0400
G01 X50.3687 Y19.8931
G01 X50.4827 Y19.7234
G01 X50.5649 Y19.5362
G01 X50.6126 Y19.3373
G01 X50.6244 Y19.1332
G01 X50.5998 Y18.9302
G01 X50.5397 Y18.7347
G01 X50.4459 Y18.5530
G01 X50.3214 Y18.3908
G01 X50.1702 Y18.2532
G01 X49.9970 Y18.1445
G01 X49.9588 Y18.1290
G01 X49.9509 Y18.1250
G01 X49.9432 Y18.1205
G01 X49.9335 Y18.1136
G01 X49.8778 Y18.0696
G01 X49.8684 Y18.0614
G01 X49.8579 Y18.0500
G01 X49.8506 Y18.0400
G01 X49.8430 Y18.0265
G01 X49.8380 Y18.0151
G01 X49.8139 Y17.9450
G01 X49.8112 Y17.9361
G01 X49.8091 Y17.9270
G01 X49.8078 Y17.9178
G01 X49.8071 Y17.9023
G01 X49.8079 Y17.8900
G01 X49.8099 Y17.8777
G01 X49.8275 Y17.8057
G01 X49.8300 Y17.7969
G01 X49.8343 Y17.7855
G01 X49.8412 Y17.7719
G01 X49.8497 Y17.7593
G01 X49.8576 Y17.7500
G01 X49.8641 Y17.7435
G01 X49.9189 Y17.6929
G01 X49.9260 Y17.6868
G01 X49.9336 Y17.6813
G01 X49.9416 Y17.6763
G01 X49.9499 Y17.6720
G01 X50.0603 Y17.6193
G01 X50.2264 Y17.5000
G01 X50.3687 Y17.3531
G01 X50.4827 Y17.1834
G01 X50.5649 Y16.9962
G01 X50.6126 Y16.7973
G01 X50.6244 Y16.5932
G01 X50.5998 Y16.3902
G01 X50.5397 Y16.1947
G01 X50.4459 Y16.0130
G01 X50.3214 Y15.8508
G01 X50.1702 Y15.7132
G01 X49.9970 Y15.6045
G01 X49.9588 Y15.5890
G01 X49.9509 Y15.5850
G01 X49.9432 Y15.5805
G01 X49.9335 Y15.5736
G01 X49.8778 Y15.5296
G01 X49.8684 Y15.5214
G01 X49.8579 Y15.5100
G01 X49.8506 Y15.5000
G01 X49.8430 Y15.4865
G01 X49.8380 Y15.4751
G01 X49.8139 Y15.4050
G01 X49.8112 Y15.3961
G01 X49.8091 Y15.3870
G01 X49.8078 Y15.3778
G01 X49.8071 Y15.3623
G01 X49.8079 Y15.3500
G01 X49.8099 Y15.3377
G01 X49.8275 Y15.2657
G01 X49.8300 Y15.2569
G01 X49.8343 Y15.2455
G01 X49.8412 Y15.2319
G01 X49.8497 Y15.2193
G01 X49.8576 Y15.2100
G01 X49.8641 Y15.2035
G01 X49.9189 Y15.1529
G01 X49.9260 Y15.1468
G01 X49.9336 Y15.1413
G01 X49.9416 Y15.1363
G01 X49.9499 Y15.1320
G01 X50.0603 Y15.0793
G01 X50.2264 Y14.9600
G01 X50.3687 Y14.8131
G01 X50.4827 Y14.6434
G01 X50.5649 Y14.4562
G01 X50.6126 Y14.2573
G01 X50.6244 Y14.0532
G01 X50.5998 Y13.8502
G01 X50.5397 Y13.6547
G01 X50.4459 Y13.4730
G01 X50.3214 Y13.3108
G01 X50.1702 Y13.1732
G01 X49.9970 Y13.0645
G01 X49.9588 Y13.0490
G01 X49.9509 Y13.0450
G01 X49.9432 Y13.0405
G01 X49.9335 Y13.0336
G01 X49.8778 Y12.9896
G01 X49.8662 Y12.9793
G01 X49.8579 Y12.9700
G01 X49.8490 Y12.9574
G01 X49.8430 Y12.9465
G01 X49.8380 Y12.9351
G01 X49.8139 Y12.8650
G01 X49.8112 Y12.8561
G01 X49.8082 Y12.8409
G01 X49.8073 Y12.8316
G01 X49.8071 Y12.8223
G01 X49.8079 Y12.8100
G01 X49.8099 Y12.7977
G01 X49.8275 Y12.7257
G01 X49.8300 Y12.7169
G01 X49.8355 Y12.7027
G01 X49.8412 Y12.6919
G01 X49.8497 Y12.6793
G01 X49.8576 Y12.6700
G01 X49.8641 Y12.6635
G01 X49.9189 Y12.6129
G01 X49.9260 Y12.6068
G01 X49.9336 Y12.6013
G01 X49.9416 Y12.5963
G01 X49.9499 Y12.5920
G01 X50.0603 Y12.5393
G01 X50.2264 Y12.4200
G01 X50.3687 Y12.2731
G01 X50.4827 Y12.1034
G01 X50.5649 Y11.9162
G01 X50.6126 Y11.7173
G01 X50.6244 Y11.5132
G01 X50.5998 Y11.3102
G01 X50.5397 Y11.1147
G01 X50.4459 Y10.9330
G01 X50.3214 Y10.7708
G01 X50.1702 Y10.6332
G01 X49.9970 Y10.5245
G01 X49.9582 Y10.5088
G01 X49.9502 Y10.5048
G01 X49.9426 Y10.5002
G01 X49.9329 Y10.4933
G01 X49.8771 Y10.4493
G01 X49.8656 Y10.4390
G01 X49.8573 Y10.4297
G01 X49.8483 Y10.4171
G01 X49.8423 Y10.4062
G01 X49.8374 Y10.3948
G01 X49.8114 Y10.3189
G01 X49.8091 Y10.3098
G01 X49.8075 Y10.3007
G01 X49.8064 Y10.2852
G01 X49.8073 Y10.2697
G01 X49.8093 Y10.2575
G01 X49.8268 Y10.1855
G01 X49.8303 Y10.1738
G01 X49.8362 Y10.1597
G01 X49.8421 Y10.1490
G01 X49.8510 Y10.1366
G01 X49.8613 Y10.1254
G01 X49.9206 Y10.0706
G01 X49.9330 Y10.0610
G01 X49.9409 Y10.0561
G01 X49.9492 Y10.0517
G01 X50.0601 Y9.9989
G01 X50.2260 Y9.8796
G01 X50.3682 Y9.7328
G01 X50.4823 Y9.5632
G01 X50.5590 Y9.3883
G01 X50.2758 Y9.3883
G01 X50.2599 Y9.4220
G01 X50.2556 Y9.4301
G01 X50.2140 Y9.4995
G01 X50.2088 Y9.5071
G01 X50.1643 Y9.5672
G01 X50.1585 Y9.5744
G01 X50.1020 Y9.6365
G01 X50.0422 Y9.6910
G01 X50.0327 Y9.6988
G01 X49.9726 Y9.7433
G01 X49.9651 Y9.7485
G01 X49.8930 Y9.7916
G01 X49.8199 Y9.8263
G01 X49.8086 Y9.8310
G01 X49.7323 Y9.8581
G01 X49.6479 Y9.8793
G01 X49.5679 Y9.8913
G01 X49.5557 Y9.8925
G01 X49.4748 Y9.8963
G01 X48.6958 Y9.8963
G01 X48.6180 Y9.8925
G01 X48.6058 Y9.8913
G01 X48.5258 Y9.8793
G01 X48.4443 Y9.8590
G01 X48.4355 Y9.8562
G01 X48.3594 Y9.8288
G01 X48.2807 Y9.7916
G01 X48.2060 Y9.7468
G01 X48.1410 Y9.6988
G01 X48.1338 Y9.6930
G01 X48.0716 Y9.6365
G01 X48.0172 Y9.5767
G01 X48.0113 Y9.5696
G01 X47.9649 Y9.5071
G01 X47.9596 Y9.4995
G01 X47.9180 Y9.4301
G01 X47.9138 Y9.4220
G01 X47.8979 Y9.3883
G01 X47.6174 Y9.3883
G01 X47.6344 Y9.4437
G01 X47.7282 Y9.6253
G01 X47.8526 Y9.7875
G01 X48.0038 Y9.9250
G01 X48.1769 Y10.0336
G01 X48.2154 Y10.0493
G01 X48.2234 Y10.0533
G01 X48.2311 Y10.0579
G01 X48.2408 Y10.0648
G01 X48.2965 Y10.1087
G01 X48.3059 Y10.1169
G01 X48.3163 Y10.1283
G01 X48.3236 Y10.1384
G01 X48.3299 Y10.1491
G01 X48.3351 Y10.1604
G01 X48.3623 Y10.2392
G01 X48.3645 Y10.2483
G01 X48.3661 Y10.2574
G01 X48.3672 Y10.2729
G01 X48.3664 Y10.2884
G01 X48.3644 Y10.3006
G01 X48.3468 Y10.3726
G01 X48.3433 Y10.3843
G01 X48.3374 Y10.3984
G01 X48.3299 Y10.4116
G01 X48.3227 Y10.4215
G01 X48.3124 Y10.4327
G01 X48.2531 Y10.4875
G01 X48.2407 Y10.4971
G01 X48.2327 Y10.5020
G01 X48.2244 Y10.5064
G01 X48.1134 Y10.5593
G01 X47.9473 Y10.6787
G01 X47.8050 Y10.8255
G01 X47.6910 Y10.9952
G01 X47.6088 Y11.1825
G01 X47.5610 Y11.3813
G01 X47.5493 Y11.5854
G01 X47.5738 Y11.7884
G01 X47.6340 Y11.9839
G01 X47.7277 Y12.1656
G01 X47.8522 Y12.3278
G01 X48.0035 Y12.4654
G01 X48.1767 Y12.5741
G01 X48.2148 Y12.5896
G01 X48.2228 Y12.5936
G01 X48.2305 Y12.5982
G01 X48.2402 Y12.6051
G01 X48.2959 Y12.6490
G01 X48.3075 Y12.6594
G01 X48.3157 Y12.6686
G01 X48.3230 Y12.6787
G01 X48.3293 Y12.6894
G01 X48.3345 Y12.7006
G01 X48.3617 Y12.7795
G01 X48.3651 Y12.7946
G01 X48.3664 Y12.8070
G01 X48.3663 Y12.8225
G01 X48.3644 Y12.8379
G01 X48.3462 Y12.9129
G01 X48.3427 Y12.9246
G01 X48.3368 Y12.9387
G01 X48.3292 Y12.9519
G01 X48.3201 Y12.9641
G01 X48.3096 Y12.9751
G01 X48.2524 Y13.0278
G01 X48.2401 Y13.0373
G01 X48.2321 Y13.0423
G01 X48.2238 Y13.0467
G01 X48.1134 Y13.0993
G01 X47.9473 Y13.2187
G01 X47.7972 Y13.3735
G01 X47.7906 Y13.3799
G01 X47.7835 Y13.3858
G01 X47.7760 Y13.3911
G01 X47.7681 Y13.3958
G01 X47.7593 Y13.4003
G01 X47.7208 Y13.4267
G01 X47.7099 Y13.4327
G01 X47.6986 Y13.4376
G01 X47.6868 Y13.4413
G01 X47.6778 Y13.4434
G01 X47.6320 Y13.4507
G01 X47.6187 Y13.4518
G01 X47.2319 Y13.4517
G01 X47.2201 Y13.4505
G01 X47.2055 Y13.4476
G01 X47.1316 Y13.4259
G01 X47.1230 Y13.4227
G01 X47.1118 Y13.4176
G01 X47.1012 Y13.4114
G01 X47.0937 Y13.4060
G01 X47.0678 Y13.3851
G01 X47.0604 Y13.3783
G01 X45.1307 Y11.4486
G01 X45.1211 Y11.4372
G01 X45.1129 Y11.4248
G01 X45.0775 Y11.3599
G01 X45.0709 Y11.3460
G01 X45.0670 Y11.3344
G01 X45.0637 Y11.3195
G01 X45.0600 Y11.2866
G01 X45.0593 Y11.2732
G01 X45.0593 Y3.9934
G01 X45.0611 Y3.9651
G01 X45.0632 Y3.9485
G01 X45.0599 Y3.9075
G01 X45.0593 Y3.8888
G01 X45.0562 Y3.8611
G01 X45.0511 Y3.7990
G01 X45.0468 Y3.7796
G01 X45.0242 Y3.7170
G01 X45.0050 Y3.6577
G01 X44.9964 Y3.6397
G01 X44.9600 Y3.5840
G01 X44.9265 Y3.5289
G01 X44.9151 Y3.5152
G01 X44.8634 Y3.4661
G01 X42.7133 Y1.3158
G01 X42.7040 Y1.3042
G01 X42.6975 Y1.2942
G01 X42.6620 Y1.2293
G01 X42.6555 Y1.2153
G01 X42.6507 Y1.2005
G01 X42.6478 Y1.1853
G01 X42.6469 Y1.1760
G01 X42.6468 Y1.1667
G01 X42.6524 Y1.0866
G01 X42.6548 Y1.0713
G01 X42.6592 Y1.0564
G01 X42.6653 Y1.0421
G01 X42.6715 Y1.0313
G01 X42.6768 Y1.0237
G01 X42.7212 Y0.9644
G01 X42.7293 Y0.9550
G01 X42.7408 Y0.9446
G01 X42.7534 Y0.9356
G01 X42.7615 Y0.9310
G01 X42.7699 Y0.9270
G01 X42.8451 Y0.8988
G01 X42.8540 Y0.8961
G01 X42.8661 Y0.8935
G01 X42.8753 Y0.8924
G01 X42.8904 Y0.8917
G01 X50.4831 Y0.8916
G01 X50.4950 Y0.8922
G01 X50.5038 Y0.8934
G01 X50.5154 Y0.8959
G01 X50.5864 Y0.9167
G01 X50.6008 Y0.9219
G01 X50.6119 Y0.9273
G01 X50.6248 Y0.9356
G01 X50.6506 Y0.9562
G01 X50.6582 Y0.9628
G01 X51.6737 Y1.9782
G01 X51.6797 Y1.9848
G01 X51.6853 Y1.9917
G01 X51.6904 Y1.9990
G01 X51.6950 Y2.0067
G01 X51.7290 Y2.0690
G01 X51.7355 Y2.0829
G01 X51.7403 Y2.0975
G01 X51.7428 Y2.1095
G01 X51.7465 Y2.1424
G01 X51.7471 Y2.1524
G01 X51.7471 Y4.2536
G01 X51.7459 Y4.2684
G01 X51.7437 Y4.2801
G01 X51.7202 Y4.3598
G01 X51.7143 Y4.3740
G01 X51.7100 Y4.3821
G01 X51.7050 Y4.3898
G01 X51.6995 Y4.3972
G01 X51.6826 Y4.4182
G01 X51.6737 Y4.4281
G01 X50.5376 Y5.5642
G01 X50.5265 Y5.5740
G01 X50.5143 Y5.5825
G01 X50.4413 Y5.6223
G01 X50.4270 Y5.6282
G01 X50.4150 Y5.6316
G01 X50.3997 Y5.6341
G01 X50.3842 Y5.6348
G01 X50.3010 Y5.6288
G01 X50.2856 Y5.6259
G01 X50.2766 Y5.6233
G01 X50.2678 Y5.6200
G01 X50.2537 Y5.6130
G01 X50.2077 Y5.5850
G01 X50.2004 Y5.5799
G01 X50.1934 Y5.5743
G01 X50.1702 Y5.5532
G01 X49.9970 Y5.4445
G01 X49.9588 Y5.4290
G01 X49.9509 Y5.4250
G01 X49.9432 Y5.4205
G01 X49.9335 Y5.4136
G01 X49.8730 Y5.3656
G01 X49.8620 Y5.3547
G01 X49.8524 Y5.3425
G01 X49.8444 Y5.3293
G01 X49.8380 Y5.3151
G01 X49.8129 Y5.2421
G01 X49.8104 Y5.2331
G01 X49.8086 Y5.2240
G01 X49.8075 Y5.2147
G01 X49.8071 Y5.2054
G01 X49.8073 Y5.1961
G01 X49.8088 Y5.1838
G01 X49.8106 Y5.1747
G01 X49.8291 Y5.0998
G01 X49.8343 Y5.0855
G01 X49.8412 Y5.0719
G01 X49.8497 Y5.0593
G01 X49.8597 Y5.0478
G01 X49.9212 Y4.9908
G01 X49.9336 Y4.9813
G01 X49.9416 Y4.9763
G01 X49.9499 Y4.9720
G01 X50.0603 Y4.9193
G01 X50.2264 Y4.8000
G01 X50.3687 Y4.6531
G01 X50.4827 Y4.4834
G01 X50.5179 Y4.4033
G01 X50.5649 Y4.2962
G01 X50.6126 Y4.0973
G01 X50.6244 Y3.8932
G01 X50.5998 Y3.6902
G01 X50.5397 Y3.4947
G01 X50.4459 Y3.3130
G01 X50.3214 Y3.1508
G01 X50.1702 Y3.0132
G01 X49.9970 Y2.9045
G01 X49.8073 Y2.8283
G01 X49.6051 Y2.7864
G01 X49.5603 Y2.7838
G01 X48.6469 Y2.7838
G01 X48.4952 Y2.7974
G01 X48.2979 Y2.8513
G01 X48.1134 Y2.9393
G01 X47.9473 Y3.0587
G01 X47.8050 Y3.2055
G01 X47.6910 Y3.3752
G01 X47.6088 Y3.5625
G01 X47.5610 Y3.7613
G01 X47.5493 Y3.9654
G01 X47.5738 Y4.1684
G01 X47.5878 Y4.2139
G01 X47.6340 Y4.3639
G01 X47.7277 Y4.5456
G01 X47.8522 Y4.7078
G01 X48.0035 Y4.8454
G01 X48.1767 Y4.9541
G01 X48.2148 Y4.9696
G01 X48.2228 Y4.9736
G01 X48.2305 Y4.9782
G01 X48.2402 Y4.9851
G01 X48.2959 Y5.0290
G01 X48.3075 Y5.0394
G01 X48.3157 Y5.0486
G01 X48.3230 Y5.0587
G01 X48.3293 Y5.0694
G01 X48.3356 Y5.0835
G01 X48.3617 Y5.1595
G01 X48.3651 Y5.1746
G01 X48.3662 Y5.1839
G01 X48.3666 Y5.1932
G01 X48.3658 Y5.2087
G01 X48.3637 Y5.2209
G01 X48.3462 Y5.2929
G01 X48.3427 Y5.3046
G01 X48.3368 Y5.3187
G01 X48.3292 Y5.3319
G01 X48.3221 Y5.3418
G01 X48.3118 Y5.3530
G01 X48.2524 Y5.4078
G01 X48.2401 Y5.4173
G01 X48.2321 Y5.4223
G01 X48.2238 Y5.4267
G01 X48.1134 Y5.4793
G01 X47.9473 Y5.5987
G01 X47.8050 Y5.7455
G01 X47.6910 Y5.9152
G01 X47.6868 Y5.9248
G01 X47.6088 Y6.1025
G01 X47.5610 Y6.3013
G01 X47.5493 Y6.5054
G01 X47.5738 Y6.7084
G01 X47.6340 Y6.9039
G01 X47.7277 Y7.0856
G01 X47.8522 Y7.2478
G01 X48.0035 Y7.3854
G01 X48.1767 Y7.4941
G01 X48.2155 Y7.5098
G01 X48.2234 Y7.5138
G01 X48.2311 Y7.5184
G01 X48.2408 Y7.5253
G01 X48.2965 Y7.5693
G01 X48.3081 Y7.5796
G01 X48.3164 Y7.5889
G01 X48.3237 Y7.5989
G01 X48.3299 Y7.6096
G01 X48.3351 Y7.6209
G01 X48.3623 Y7.6998
G01 X48.3657 Y7.7149
G01 X48.3672 Y7.7303
G01 X48.3670 Y7.7428
G01 X48.3650 Y7.7581
G01 X48.3468 Y7.8332
G01 X48.3443 Y7.8420
G01 X48.3388 Y7.8562
G01 X48.3315 Y7.8696
G01 X48.3227 Y7.8820
G01 X48.3124 Y7.8933
G01 X48.2531 Y7.9480
G01 X48.2407 Y7.9576
G01 X48.2327 Y7.9626
G01 X48.2244 Y7.9669
G01 X48.1136 Y8.0198
G01 X47.9477 Y8.1390
G01 X47.8054 Y8.2858
G01 X47.6914 Y8.4555
G01 X47.6147 Y8.6303
G01 X47.8979 Y8.6303
G01 X47.9138 Y8.5967
G01 X47.9180 Y8.5885
G01 X47.9596 Y8.5191
G01 X47.9649 Y8.5115
G01 X48.0094 Y8.4514
G01 X48.0151 Y8.4443
G01 X48.0716 Y8.3821
G01 X48.1315 Y8.3277
G01 X48.1410 Y8.3199
G01 X48.2010 Y8.2753
G01 X48.2086 Y8.2701
G01 X48.2807 Y8.2271
G01 X48.3538 Y8.1923
G01 X48.3651 Y8.1876
G01 X48.4414 Y8.1605
G01 X48.5258 Y8.1394
G01 X48.6058 Y8.1273
G01 X48.6180 Y8.1261
G01 X48.6988 Y8.1223
G01 X49.4779 Y8.1224
G01 X49.5557 Y8.1261
G01 X49.5679 Y8.1273
G01 X49.6479 Y8.1394
G01 X49.7294 Y8.1597
G01 X49.7381 Y8.1624
G01 X49.8143 Y8.1898
G01 X49.8930 Y8.2271
G01 X49.9676 Y8.2718
G01 X50.0327 Y8.3199
G01 X50.0399 Y8.3256
G01 X50.1020 Y8.3821
G01 X50.1565 Y8.4420
G01 X50.1624 Y8.4490
G01 X50.2088 Y8.5115
G01 X50.2140 Y8.5191
G01 X50.2556 Y8.5885
G01 X50.2599 Y8.5967
G01 X50.2758 Y8.6303
G01 X50.5563 Y8.6303
G01 X50.5392 Y8.5749
G01 X50.4455 Y8.3933
G01 X50.3211 Y8.2312
G01 X50.1699 Y8.0936
G01 X49.9968 Y7.9850
G01 X49.9582 Y7.9693
G01 X49.9503 Y7.9653
G01 X49.9426 Y7.9608
G01 X49.9329 Y7.9539
G01 X49.8772 Y7.9099
G01 X49.8701 Y7.9039
G01 X49.8614 Y7.8950
G01 X49.8518 Y7.8828
G01 X49.8437 Y7.8696
G01 X49.8386 Y7.8583
G01 X49.8114 Y7.7794
G01 X49.8080 Y7.7643
G01 X49.8065 Y7.7488
G01 X49.8070 Y7.7333
G01 X49.8093 Y7.7180
G01 X49.8269 Y7.6460
G01 X49.8303 Y7.6343
G01 X49.8362 Y7.6202
G01 X49.8438 Y7.6070
G01 X49.8529 Y7.5948
G01 X49.8635 Y7.5838
G01 X49.9206 Y7.5311
G01 X49.9330 Y7.5216
G01 X49.9409 Y7.5166
G01 X49.9493 Y7.5123
G01 X50.0603 Y7.4593
G01 X50.2264 Y7.3400
G01 X50.3764 Y7.1851
G01 X50.3854 Y7.1767
G01 X50.3977 Y7.1676
G01 X50.4055 Y7.1628
G01 X50.4163 Y7.1575
G01 X50.4468 Y7.1364
G01 X50.4548 Y7.1313
G01 X50.4632 Y7.1268
G01 X50.4719 Y7.1230
G01 X50.4869 Y7.1181
G01 X50.5282 Y7.1097
G01 X50.5526 Y7.1075
G01 X50.5704 Y7.1068
G01 X50.6267 Y7.1068
G01 X50.6416 Y7.1077
G01 X50.6504 Y7.1091
G01 X50.6591 Y7.1111
G01 X50.7359 Y7.1338
G01 X50.7473 Y7.1383
G01 X50.7555 Y7.1425
G01 X50.7659 Y7.1490
G01 X50.7733 Y7.1545
G01 X50.7968 Y7.1735
G01 X50.8042 Y7.1803
G01 X51.1501 Y7.5262
G01 X51.1581 Y7.5350
G01 X51.1635 Y7.5421
G01 X51.1699 Y7.5521
G01 X51.2054 Y7.6170
G01 X51.2119 Y7.6309
G01 X51.2159 Y7.6425
G01 X51.2187 Y7.6544
G01 X51.2200 Y7.6635
G01 X51.2234 Y7.6970
G01 X51.2236 Y60.0680
G01 X51.2233 Y60.0769
G01 X51.2223 Y60.0858
G01 X51.2207 Y60.0946
G01 X51.2185 Y60.1032
G01 X51.1966 Y60.1772
G01 X51.1920 Y60.1887
G01 X51.1862 Y60.1997
G01 X51.1811 Y60.2076
G01 X51.1755 Y60.2150
G01 X51.1650 Y60.2264
G01 X51.1068 Y60.2771
G01 X51.0995 Y60.2829
G01 X51.0892 Y60.2898
G01 X51.0754 Y60.2969
G01 X51.0638 Y60.3014
G01 X51.0519 Y60.3047
G01 X51.0427 Y60.3063
G01 X50.9694 Y60.3168
G01 X50.9570 Y60.3177
G01 X50.9446 Y60.3173
G01 X50.9353 Y60.3162
G01 X50.9262 Y60.3144
G01 X50.9172 Y60.3120
G01 X50.9056 Y60.3077
G01 X50.8353 Y60.2756
G01 X50.8218 Y60.2679
G01 X50.8117 Y60.2606
G01 X50.8046 Y60.2545
G01 X50.7981 Y60.2478
G01 X50.7731 Y60.2194
G01 X50.7659 Y60.2104
G01 X50.7406 Y60.1718
G01 X50.7071 Y60.1167
G01 X50.6958 Y60.1030
G01 X50.6440 Y60.0539
G01 X49.9113 Y59.3212
G01 X49.8925 Y59.2999
G01 X49.8823 Y59.2866
G01 X49.8510 Y59.2599
G01 X49.8373 Y59.2472
G01 X49.8155 Y59.2298
G01 X49.7680 Y59.1895
G01 X49.7513 Y59.1788
G01 X49.6910 Y59.1505
G01 X49.6355 Y59.1222
G01 X49.6167 Y59.1155
G01 X49.5579 Y59.1033
G01 X49.5394 Y59.0989
G01 X49.5280 Y59.0953
G01 X49.5198 Y59.0918
G01 X49.5092 Y59.0864
G01 X49.4452 Y59.0492
G01 X49.4351 Y59.0423
G01 X49.4234 Y59.0323
G01 X49.4151 Y59.0233
G01 X49.4012 Y59.0065
G01 X49.2935 Y58.8631
G01 X49.2884 Y58.8558
G01 X49.2824 Y58.8455
G01 X49.2774 Y58.8347
G01 X49.2515 Y58.7654
G01 X49.2469 Y58.7506
G01 X49.2443 Y58.7353
G01 X49.2435 Y58.7198
G01 X49.2447 Y58.7043
G01 X49.2463 Y58.6952
G01 X49.2628 Y58.6197
G01 X49.2655 Y58.6108
G01 X49.2689 Y58.6022
G01 X49.2730 Y58.5938
G01 X49.2776 Y58.5857
G01 X49.2847 Y58.5755
G01 X49.2928 Y58.5661
G01 X49.3451 Y58.5136
G01 X49.3562 Y58.5037
G01 X49.3659 Y58.4968
G01 X49.3762 Y58.4909
G01 X49.3978 Y58.4808
G01 X49.4079 Y58.4767
G01 X49.4958 Y58.4108
G01 X49.5617 Y58.3229
G01 X49.6010 Y58.2180
G01 X49.6053 Y58.1782
G01 X49.6053 Y56.1905
G01 X49.6010 Y56.1506
G01 X49.5617 Y56.0458
G01 X49.4958 Y55.9578
G01 X49.4079 Y55.8920
G01 X49.3030 Y55.8526
G01 X49.2632 Y55.8483
G01 X48.4742 Y55.8483
G01 X48.4594 Y55.8470
G01 X48.4477 Y55.8448
G01 X48.3679 Y55.8214
G01 X48.3564 Y55.8167
G01 X48.3454 Y55.8109
G01 X48.3351 Y55.8041
G01 X48.3231 Y55.7941
G01 X48.3146 Y55.7852
G01 X48.2681 Y55.7315
G01 X48.2622 Y55.7243
G01 X48.2553 Y55.7139
G01 X48.2495 Y55.7030
G01 X48.2458 Y55.6944
G01 X48.2428 Y55.6856
G01 X48.2405 Y55.6766
G01 X48.2388 Y55.6674
G01 X48.2287 Y55.5972
G01 X48.2275 Y55.5848
G01 X48.2278 Y55.5693
G01 X48.2294 Y55.5570
G01 X48.2323 Y55.5449
G01 X48.2363 Y55.5332
G01 X48.2709 Y55.4573
G01 X48.2755 Y55.4493
G01 X48.2806 Y55.4416
G01 X48.2904 Y55.4296
G01 X48.2997 Y55.4198
G01 X49.4900 Y54.2295
G01 X49.5113 Y54.2107
G01 X49.5246 Y54.2005
G01 X49.5512 Y54.1692
G01 X49.5640 Y54.1555
G01 X49.5813 Y54.1337
G01 X49.6216 Y54.0863
G01 X49.6324 Y54.0695
G01 X49.6607 Y54.0092
G01 X49.6890 Y53.9537
G01 X49.6956 Y53.9349
G01 X49.7093 Y53.8697
G01 X49.7246 Y53.8071
G01 X49.7262 Y53.7894
G01 X49.7243 Y53.7181
G01 X49.7243 Y53.4979
G01 X49.7249 Y53.4860
G01 X49.7261 Y53.4772
G01 X49.7286 Y53.4656
G01 X49.7503 Y53.3916
G01 X49.7558 Y53.3774
G01 X49.7631 Y53.3639
G01 X49.7682 Y53.3563
G01 X49.7739 Y53.3491
G01 X49.7844 Y53.3381
G01 X49.8408 Y53.2883
G01 X49.8535 Y53.2790
G01 X49.8673 Y53.2714
G01 X50.0603 Y53.1793
G01 X50.2264 Y53.0600
G01 X50.3687 Y52.9131
G01 X50.4827 Y52.7434
G01 X50.5649 Y52.5562
G01 X50.6126 Y52.3573
G01 X50.6244 Y52.1532
G01 X50.5998 Y51.9502
G01 X50.5397 Y51.7547
G01 X50.4459 Y51.5730
G01 X50.3214 Y51.4108
G01 X50.1702 Y51.2732
G01 X49.9970 Y51.1645
G01 X49.9588 Y51.1490
G01 X49.9509 Y51.1450
G01 X49.9432 Y51.1405
G01 X49.9335 Y51.1336
G01 X49.8778 Y51.0896
G01 X49.8684 Y51.0814
G01 X49.8579 Y51.0700
G01 X49.8506 Y51.0600
G01 X49.8444 Y51.0493
G01 X49.8392 Y51.0380
G01 X49.8120 Y50.9591
G01 X49.8097 Y50.9501
G01 X49.8082 Y50.9409
G01 X49.8071 Y50.9254
G01 X49.8076 Y50.9130
G01 X49.8099 Y50.8977
G01 X49.8275 Y50.8257
G01 X49.8309 Y50.8140
G01 X49.8368 Y50.8000
G01 X49.8444 Y50.7867
G01 X49.8516 Y50.7769
G01 X49.8619 Y50.7656
G01 X49.9212 Y50.7108
G01 X49.9336 Y50.7013
G01 X49.9416 Y50.6963
G01 X49.9499 Y50.6920
G01 X50.0603 Y50.6393
G01 X50.2264 Y50.5200
G01 X50.3687 Y50.3731
G01 X50.4827 Y50.2034
G01 X50.5649 Y50.0162
G01 X50.6126 Y49.8173
G01 X50.6244 Y49.6132
G01 X50.5998 Y49.4102
G01 X50.5397 Y49.2147
G01 X50.4459 Y49.0330
G01 X50.3214 Y48.8708
G01 X50.1702 Y48.7332
G01 X49.9970 Y48.6245
G01 X49.9582 Y48.6088
G01 X49.9502 Y48.6048
G01 X49.9426 Y48.6002
G01 X49.9329 Y48.5933
G01 X49.8771 Y48.5493
G01 X49.8656 Y48.5390
G01 X49.8573 Y48.5297
G01 X49.8500 Y48.5197
G01 X49.8437 Y48.5090
G01 X49.8385 Y48.4977
G01 X49.8114 Y48.4189
G01 X49.8080 Y48.4037
G01 X49.8065 Y48.3883
G01 X49.8067 Y48.3759
G01 X49.8087 Y48.3605
G01 X49.8268 Y48.2855
G01 X49.8293 Y48.2767
G01 X49.8349 Y48.2625
G01 X49.8421 Y48.2490
G01 X49.8510 Y48.2366
G01 X49.8613 Y48.2254
G01 X49.9206 Y48.1706
G01 X49.9330 Y48.1610
G01 X49.9409 Y48.1561
G01 X49.9492 Y48.1517
G01 X50.0601 Y48.0989
G01 X50.2260 Y47.9796
G01 X50.3682 Y47.8328
G01 X50.4823 Y47.6632
G01 X50.5590 Y47.4883
G01 X50.2758 Y47.4883
G01 X50.2599 Y47.5220
G01 X50.2556 Y47.5301
G01 X50.2140 Y47.5995
G01 X50.2088 Y47.6071
G01 X50.1643 Y47.6672
G01 X50.1585 Y47.6744
G01 X50.1020 Y47.7365
G01 X50.0422 Y47.7910
G01 X50.0327 Y47.7988
G01 X49.9726 Y47.8433
G01 X49.9651 Y47.8485
G01 X49.8930 Y47.8916
G01 X49.8199 Y47.9263
G01 X49.8086 Y47.9310
G01 X49.7323 Y47.9581
G01 X49.6479 Y47.9793
G01 X49.5679 Y47.9913
G01 X49.5557 Y47.9925
G01 X49.4748 Y47.9963
G01 X48.6958 Y47.9963
G01 X48.6180 Y47.9925
G01 X48.6058 Y47.9913
G01 X48.5258 Y47.9793
G01 X48.4443 Y47.9590
G01 X48.4355 Y47.9562
G01 X48.3594 Y47.9288
G01 X48.2807 Y47.8916
G01 X48.2060 Y47.8468
G01 X48.1410 Y47.7988
G01 X48.1338 Y47.7930
G01 X48.0716 Y47.7365
G01 X48.0172 Y47.6767
G01 X48.0113 Y47.6696
G01 X47.9649 Y47.6071
G01 X47.9596 Y47.5995
G01 X47.9180 Y47.5301
G01 X47.9138 Y47.5220
G01 X47.8979 Y47.4883
G01 X47.6174 Y47.4883
G01 X47.6344 Y47.5437
G01 X47.7282 Y47.7253
G01 X47.8526 Y47.8875
G01 X48.0038 Y48.0250
G01 X48.1769 Y48.1336
G01 X48.2154 Y48.1493
G01 X48.2234 Y48.1533
G01 X48.2311 Y48.1579
G01 X48.2408 Y48.1648
G01 X48.2965 Y48.2087
G01 X48.3036 Y48.2148
G01 X48.3123 Y48.2236
G01 X48.3201 Y48.2333
G01 X48.3269 Y48.2437
G01 X48.3339 Y48.2575
G01 X48.3373 Y48.2662
G01 X48.3614 Y48.3362
G01 X48.3645 Y48.3483
G01 X48.3665 Y48.3605
G01 X48.3671 Y48.3698
G01 X48.3671 Y48.3791
G01 X48.3664 Y48.3884
G01 X48.3650 Y48.3976
G01 X48.3452 Y48.4785
G01 X48.3412 Y48.4900
G01 X48.3346 Y48.5038
G01 X48.3264 Y48.5166
G01 X48.3167 Y48.5284
G01 X48.3102 Y48.5348
G01 X48.2554 Y48.5854
G01 X48.2483 Y48.5915
G01 X48.2407 Y48.5971
G01 X48.2327 Y48.6020
G01 X48.2244 Y48.6064
G01 X48.1134 Y48.6593
G01 X47.9473 Y48.7787
G01 X47.8050 Y48.9255
G01 X47.6910 Y49.0952
G01 X47.6088 Y49.2825
G01 X47.5610 Y49.4813
G01 X47.5493 Y49.6854
G01 X47.5738 Y49.8884
G01 X47.6340 Y50.0839
G01 X47.7277 Y50.2656
G01 X47.8522 Y50.4278
G01 X48.0035 Y50.5654
G01 X48.1767 Y50.6741
G01 X48.2148 Y50.6896
G01 X48.2228 Y50.6936
G01 X48.2305 Y50.6982
G01 X48.2402 Y50.7051
G01 X48.2959 Y50.7490
G01 X48.3052 Y50.7572
G01 X48.3117 Y50.7639
G01 X48.3195 Y50.7736
G01 X48.3263 Y50.7839
G01 X48.3320 Y50.7949
G01 X48.3367 Y50.8065
G01 X48.3598 Y50.8736
G01 X48.3639 Y50.8885
G01 X48.3659 Y50.9008
G01 X48.3665 Y50.9101
G01 X48.3665 Y50.9194
G01 X48.3654 Y50.9318
G01 X48.3630 Y50.9440
G01 X48.3454 Y51.0159
G01 X48.3406 Y51.0303
G01 X48.3340 Y51.0441
G01 X48.3258 Y51.0569
G01 X48.3181 Y51.0664
G01 X48.3096 Y51.0751
G01 X48.2548 Y51.1257
G01 X48.2476 Y51.1318
G01 X48.2401 Y51.1373
G01 X48.2321 Y51.1423
G01 X48.2238 Y51.1467
G01 X48.1134 Y51.1993
G01 X47.9473 Y51.3187
G01 X47.8050 Y51.4655
G01 X47.6910 Y51.6352
G01 X47.6088 Y51.8225
G01 X47.6007 Y51.8563
G01 X47.5610 Y52.0213
G01 X47.5493 Y52.2254
G01 X47.5738 Y52.4284
G01 X47.6340 Y52.6239
G01 X47.7277 Y52.8056
G01 X47.8522 Y52.9678
G01 X48.0035 Y53.1054
G01 X48.1767 Y53.2141
G01 X48.2045 Y53.2254
G01 X48.2125 Y53.2294
G01 X48.2202 Y53.2340
G01 X48.2298 Y53.2409
G01 X48.2880 Y53.2868
G01 X48.2971 Y53.2952
G01 X48.3054 Y53.3045
G01 X48.3110 Y53.3119
G01 X48.3160 Y53.3198
G01 X48.3217 Y53.3308
G01 X48.3253 Y53.3394
G01 X48.3505 Y53.4124
G01 X48.3536 Y53.4244
G01 X48.3556 Y53.4367
G01 X48.3562 Y53.4459
G01 X48.3562 Y53.4553
G01 X48.3546 Y53.4707
G01 X48.3527 Y53.4798
G01 X48.3351 Y53.5517
G01 X48.3324 Y53.5605
G01 X48.3291 Y53.5690
G01 X48.3251 Y53.5773
G01 X48.3205 Y53.5853
G01 X48.3154 Y53.5929
G01 X48.2936 Y53.6212
G01 X48.2852 Y53.6311
G01 X47.5224 Y54.3939
G01 X47.5110 Y54.4035
G01 X47.5037 Y54.4086
G01 X47.4960 Y54.4132
G01 X47.4283 Y54.4500
G01 X47.4170 Y54.4548
G01 X47.4053 Y54.4585
G01 X47.3963 Y54.4605
G01 X47.3872 Y54.4618
G01 X47.3571 Y54.4650
G01 X47.3470 Y54.4654
G01 X46.1344 Y54.4654
G01 X46.1225 Y54.4648
G01 X46.1137 Y54.4637
G01 X46.0992 Y54.4603
G01 X46.0281 Y54.4394
G01 X46.0136 Y54.4338
G01 X46.0000 Y54.4264
G01 X45.9874 Y54.4173
G01 X45.9760 Y54.4068
G01 X45.9253 Y54.3486
G01 X45.9159 Y54.3362
G01 X45.9095 Y54.3256
G01 X45.9031 Y54.3115
G01 X45.8992 Y54.2997
G01 X45.8960 Y54.2845
G01 X45.8859 Y54.2142
G01 X45.8847 Y54.1988
G01 X45.8851 Y54.1864
G01 X45.8867 Y54.1741
G01 X45.8895 Y54.1620
G01 X45.8935 Y54.1502
G01 X45.9282 Y54.0744
G01 X45.9344 Y54.0637
G01 X45.9436 Y54.0513
G01 X45.9569 Y54.0369
G01 X46.3361 Y53.6577
G01 X46.3574 Y53.6389
G01 X46.3707 Y53.6287
G01 X46.3974 Y53.5974
G01 X46.4101 Y53.5837
G01 X46.4275 Y53.5619
G01 X46.4678 Y53.5144
G01 X46.4785 Y53.4977
G01 X46.5068 Y53.4373
G01 X46.5351 Y53.3819
G01 X46.5418 Y53.3631
G01 X46.5554 Y53.2978
G01 X46.5707 Y53.2353
G01 X46.5723 Y53.2176
G01 X46.5705 Y53.1463
G01 X46.5705 Y47.2046
G01 X46.5708 Y47.1957
G01 X46.5717 Y47.1868
G01 X46.5733 Y47.1781
G01 X46.5755 Y47.1694
G01 X46.5974 Y47.0955
G01 X46.6033 Y47.0813
G01 X46.6093 Y47.0706
G01 X46.6182 Y47.0581
G01 X46.6372 Y47.0345
G01 X46.6440 Y47.0272
G01 X47.2002 Y46.4710
G01 X47.2115 Y46.4614
G01 X47.2239 Y46.4532
G01 X47.2888 Y46.4177
G01 X47.3000 Y46.4123
G01 X47.3117 Y46.4081
G01 X47.3237 Y46.4050
G01 X47.3360 Y46.4031
G01 X47.3484 Y46.4025
G01 X47.3577 Y46.4028
G01 X47.4316 Y46.4081
G01 X47.4408 Y46.4093
G01 X47.4529 Y46.4121
G01 X47.4618 Y46.4149
G01 X47.4733 Y46.4196
G01 X47.4815 Y46.4239
G01 X47.4894 Y46.4289
G01 X47.5538 Y46.4769
G01 X47.5653 Y46.4872
G01 X47.5716 Y46.4941
G01 X47.5792 Y46.5039
G01 X47.5857 Y46.5145
G01 X47.5899 Y46.5228
G01 X47.5935 Y46.5314
G01 X47.6193 Y46.6007
G01 X47.6220 Y46.6093
G01 X47.6240 Y46.6181
G01 X47.6254 Y46.6270
G01 X47.6261 Y46.6360
G01 X47.6262 Y46.6450
G01 X47.6256 Y46.6540
G01 X47.6193 Y46.6921
G01 X47.6190 Y46.7020
G01 X47.6179 Y46.7112
G01 X47.6162 Y46.7202
G01 X47.6134 Y46.7303
G01 X47.8979 Y46.7303
G01 X47.9138 Y46.6967
G01 X47.9180 Y46.6885
G01 X47.9596 Y46.6191
G01 X47.9649 Y46.6115
G01 X48.0094 Y46.5514
G01 X48.0151 Y46.5443
G01 X48.0674 Y46.4866
G01 X48.0761 Y46.4779
G01 X48.1361 Y46.4237
G01 X48.2035 Y46.3735
G01 X48.2112 Y46.3685
G01 X48.2807 Y46.3271
G01 X48.3538 Y46.2923
G01 X48.3651 Y46.2876
G01 X48.4414 Y46.2605
G01 X48.5198 Y46.2407
G01 X48.5318 Y46.2383
G01 X48.6119 Y46.2266
G01 X48.6988 Y46.2223
G01 X49.4779 Y46.2224
G01 X49.5557 Y46.2261
G01 X49.5679 Y46.2273
G01 X49.6479 Y46.2394
G01 X49.7264 Y46.2589
G01 X49.7381 Y46.2624
G01 X49.8143 Y46.2898
G01 X49.8930 Y46.3271
G01 X49.9676 Y46.3718
G01 X50.0327 Y46.4199
G01 X50.0399 Y46.4256
G01 X50.1020 Y46.4821
G01 X50.1565 Y46.5420
G01 X50.1624 Y46.5490
G01 X50.2088 Y46.6115
G01 X50.2140 Y46.6191
G01 X50.2556 Y46.6885
G01 X50.2599 Y46.6967
G01 X50.2758 Y46.7303
G01 X50.5563 Y46.7303
G01 X50.5392 Y46.6749
G01 X50.4455 Y46.4933
G01 X50.3211 Y46.3312
G01 X50.1699 Y46.1936
G01 X49.9968 Y46.0850
G01 X49.9582 Y46.0693
G01 X49.9503 Y46.0653
G01 X49.9426 Y46.0608
G01 X49.9329 Y46.0539
G01 X49.8772 Y46.0099
G01 X49.8678 Y46.0017
G01 X49.8573 Y45.9903
G01 X49.8500 Y45.9803
G01 X49.8437 Y45.9696
G01 X49.8374 Y45.9554
G01 X49.8133 Y45.8853
G01 X49.8106 Y45.8764
G01 X49.8076 Y45.8612
G01 X49.8067 Y45.8519
G01 X49.8065 Y45.8426
G01 X49.8073 Y45.8302
G01 X49.8093 Y45.8180
G01 X49.8269 Y45.7460
G01 X49.8293 Y45.7372
G01 X49.8337 Y45.7258
G01 X49.8406 Y45.7122
G01 X49.8491 Y45.6996
G01 X49.8570 Y45.6902
G01 X49.8635 Y45.6838
G01 X49.9183 Y45.6332
G01 X49.9254 Y45.6271
G01 X49.9330 Y45.6216
G01 X49.9409 Y45.6166
G01 X49.9493 Y45.6123
G01 X50.0603 Y45.5593
G01 X50.2264 Y45.4400
G01 X50.3687 Y45.2931
G01 X50.4827 Y45.1234
G01 X50.5649 Y44.9362
G01 X50.6126 Y44.7373
G01 X50.6244 Y44.5332
G01 X50.5998 Y44.3302
G01 X50.5397 Y44.1347
G01 X50.4459 Y43.9530
G01 X50.3214 Y43.7908
G01 X50.1702 Y43.6532
G01 X49.9970 Y43.5445
G01 X49.9588 Y43.5290
G01 X49.9509 Y43.5250
G01 X49.9432 Y43.5205
G01 X49.9335 Y43.5136
G01 X49.8778 Y43.4696
G01 X49.8684 Y43.4614
G01 X49.8579 Y43.4500
G01 X49.8506 Y43.4400
G01 X49.8430 Y43.4265
G01 X49.8380 Y43.4151
G01 X49.8139 Y43.3450
G01 X49.8112 Y43.3361
G01 X49.8082 Y43.3209
G01 X49.8073 Y43.3116
G01 X49.8071 Y43.3023
G01 X49.8079 Y43.2900
G01 X49.8099 Y43.2777
G01 X49.8275 Y43.2057
G01 X49.8300 Y43.1969
G01 X49.8343 Y43.1855
G01 X49.8412 Y43.1719
G01 X49.8479 Y43.1617
G01 X49.8576 Y43.1500
G01 X49.8641 Y43.1435
G01 X49.9189 Y43.0929
G01 X49.9260 Y43.0868
G01 X49.9336 Y43.0813
G01 X49.9416 Y43.0763
G01 X49.9499 Y43.0720
G01 X50.0603 Y43.0193
G01 X50.2264 Y42.9000
G01 X50.3687 Y42.7531
G01 X50.4827 Y42.5834
G01 X50.5649 Y42.3962
G01 X50.6126 Y42.1973
G01 X50.6244 Y41.9932
G01 X50.5998 Y41.7902
G01 X50.5397 Y41.5947
G01 X50.4459 Y41.4130
G01 X50.3214 Y41.2508
G01 X50.1702 Y41.1132
G01 X49.9970 Y41.0045
G01 X49.9588 Y40.9890
G01 X49.9509 Y40.9850
G01 X49.9432 Y40.9805
G01 X49.9335 Y40.9736
G01 X49.8778 Y40.9296
G01 X49.8684 Y40.9214
G01 X49.8579 Y40.9100
G01 X49.8506 Y40.9000
G01 X49.8430 Y40.8865
G01 X49.8380 Y40.8751
G01 X49.8139 Y40.8050
G01 X49.8112 Y40.7961
G01 X49.8082 Y40.7809
G01 X49.8073 Y40.7716
G01 X49.8071 Y40.7623
G01 X49.8079 Y40.7500
G01 X49.8099 Y40.7377
G01 X49.8275 Y40.6657
G01 X49.8300 Y40.6569
G01 X49.8343 Y40.6455
G01 X49.8412 Y40.6319
G01 X49.8479 Y40.6217
G01 X49.8576 Y40.6100
G01 X49.8641 Y40.6035
G01 X49.9189 Y40.5529
G01 X49.9260 Y40.5468
G01 X49.9336 Y40.5413
G01 X49.9416 Y40.5363
G01 X49.9499 Y40.5320
G01 X50.0603 Y40.4793
G01 X50.2264 Y40.3600
G01 X50.3687 Y40.2131
G01 X50.4827 Y40.0434
G01 X50.5649 Y39.8562
G01 X50.6126 Y39.6573
G01 X50.6244 Y39.4532
G01 X50.5998 Y39.2502
G01 X50.5397 Y39.0547
G01 X50.4459 Y38.8730
G01 X50.3214 Y38.7108
G01 X50.1702 Y38.5732
G01 X49.9970 Y38.4645
G01 X49.9588 Y38.4490
G01 X49.9509 Y38.4450
G01 X49.9432 Y38.4405
G01 X49.9335 Y38.4336
G01 X49.8778 Y38.3896
G01 X49.8662 Y38.3793
G01 X49.8560 Y38.3676
G01 X49.8490 Y38.3574
G01 X49.8430 Y38.3465
G01 X49.8380 Y38.3351
G01 X49.8139 Y38.2650
G01 X49.8112 Y38.2561
G01 X49.8082 Y38.2409
G01 X49.8073 Y38.2316
G01 X49.8071 Y38.2223
G01 X49.8079 Y38.2100
G01 X49.8099 Y38.1977
G01 X49.8275 Y38.1257
G01 X49.8300 Y38.1169
G01 X49.8343 Y38.1055
G01 X49.8412 Y38.0919
G01 X49.8497 Y38.0793
G01 X49.8576 Y38.0700
G01 X49.8641 Y38.0635
G01 X49.9189 Y38.0129
G01 X49.9260 Y38.0068
G01 X49.9336 Y38.0013
G01 X49.9416 Y37.9963
G01 X49.9499 Y37.9920
G01 X50.0603 Y37.9393
G01 X50.2264 Y37.8200
G01 X50.3687 Y37.6731
G01 X50.4827 Y37.5034
G01 X50.5649 Y37.3162
G01 X50.6126 Y37.1173
G01 X50.6244 Y36.9132
G01 X50.5998 Y36.7102
G01 X50.5397 Y36.5147
G01 X50.4459 Y36.3330
G01 X50.3214 Y36.1708
G01 X50.1702 Y36.0332
G01 X49.9970 Y35.9245
G01 X49.9582 Y35.9088
G01 X49.9502 Y35.9048
G01 X49.9426 Y35.9002
G01 X49.9329 Y35.8933
G01 X49.8771 Y35.8493
G01 X49.8656 Y35.8390
G01 X49.8554 Y35.8273
G01 X49.8483 Y35.8171
G01 X49.8423 Y35.8062
G01 X49.8374 Y35.7948
G01 X49.8114 Y35.7189
G01 X49.8080 Y35.7037
G01 X49.8069 Y35.6945
G01 X49.8064 Y35.6852
G01 X49.8073 Y35.6697
G01 X49.8093 Y35.6575
G01 X49.8268 Y35.5855
G01 X49.8303 Y35.5738
G01 X49.8362 Y35.5597
G01 X49.8438 Y35.5465
G01 X49.8529 Y35.5343
G01 X49.8613 Y35.5254
G01 X49.9206 Y35.4706
G01 X49.9330 Y35.4610
G01 X49.9409 Y35.4561
G01 X49.9492 Y35.4517
G01 X50.0601 Y35.3989
G01 X50.2260 Y35.2796
G01 X50.3682 Y35.1328
G01 X50.4823 Y34.9632
G01 X50.5590 Y34.7883
G01 X50.2758 Y34.7883
G01 X50.2599 Y34.8220
G01 X50.2556 Y34.8301
G01 X50.2140 Y34.8995
G01 X50.2088 Y34.9071
G01 X50.1624 Y34.9696
G01 X50.1565 Y34.9767
G01 X50.1020 Y35.0365
G01 X50.0399 Y35.0930
G01 X50.0327 Y35.0988
G01 X49.9676 Y35.1468
G01 X49.8930 Y35.1916
G01 X49.8143 Y35.2288
G01 X49.7381 Y35.2562
G01 X49.7264 Y35.2598
G01 X49.6479 Y35.2793
G01 X49.5679 Y35.2913
G01 X49.5557 Y35.2925
G01 X49.4779 Y35.2963
G01 X48.6988 Y35.2963
G01 X48.6180 Y35.2925
G01 X48.6058 Y35.2913
G01 X48.5258 Y35.2793
G01 X48.4414 Y35.2581
G01 X48.3594 Y35.2288
G01 X48.2807 Y35.1916
G01 X48.2060 Y35.1468
G01 X48.1361 Y35.0950
G01 X48.0716 Y35.0365
G01 X48.0172 Y34.9767
G01 X48.0094 Y34.9672
G01 X47.9613 Y34.9021
G01 X47.9196 Y34.8328
G01 X47.9138 Y34.8220
G01 X47.8818 Y34.7544
G01 X47.8771 Y34.7430
G01 X47.8500 Y34.6668
G01 X47.8289 Y34.5824
G01 X47.8161 Y34.4963
G01 X47.8118 Y34.4093
G01 X47.8161 Y34.3224
G01 X47.8289 Y34.2363
G01 X47.8500 Y34.1518
G01 X47.8771 Y34.0756
G01 X47.8818 Y34.0643
G01 X47.9138 Y33.9967
G01 X47.9196 Y33.9859
G01 X47.9613 Y33.9165
G01 X48.0094 Y33.8514
G01 X48.0172 Y33.8420
G01 X48.0716 Y33.7821
G01 X48.1361 Y33.7237
G01 X48.2060 Y33.6718
G01 X48.2807 Y33.6271
G01 X48.3594 Y33.5898
G01 X48.4414 Y33.5605
G01 X48.5258 Y33.5394
G01 X48.6058 Y33.5273
G01 X48.6180 Y33.5261
G01 X48.6988 Y33.5223
G01 X49.4779 Y33.5224
G01 X49.5557 Y33.5261
G01 X49.5679 Y33.5273
G01 X49.6479 Y33.5394
G01 X49.7264 Y33.5589
G01 X49.7381 Y33.5624
G01 X49.8143 Y33.5898
G01 X49.8930 Y33.6271
G01 X49.9676 Y33.6718
G01 X50.0327 Y33.7199
G01 X50.0399 Y33.7256
G01 X50.1020 Y33.7821
G01 X50.1565 Y33.8420
G01 X50.1624 Y33.8490
G01 X50.2088 Y33.9115
G01 X50.2140 Y33.9191
G01 X50.2556 Y33.9885
G01 X50.2599 Y33.9967
G01 X50.2758 Y34.0303
G01 X50.5563 Y34.0303
G01 X50.5392 Y33.9749
G01 X50.4455 Y33.7933
G01 X50.3211 Y33.6312
G01 X50.1699 Y33.4936
G01 X49.9968 Y33.3850
G01 X49.9582 Y33.3693
G01 X49.9503 Y33.3653
G01 X49.9426 Y33.3608
G01 X49.9329 Y33.3539
G01 X49.8772 Y33.3099
G01 X49.8678 Y33.3017
G01 X49.8573 Y33.2903
G01 X49.8500 Y33.2803
G01 X49.8423 Y33.2668
G01 X49.8374 Y33.2554
G01 X49.8133 Y33.1853
G01 X49.8106 Y33.1764
G01 X49.8085 Y33.1673
G01 X49.8072 Y33.1581
G01 X49.8065 Y33.1426
G01 X49.8073 Y33.1302
G01 X49.8093 Y33.1180
G01 X49.8269 Y33.0460
G01 X49.8293 Y33.0372
G01 X49.8337 Y33.0258
G01 X49.8406 Y33.0122
G01 X49.8473 Y33.0020
G01 X49.8570 Y32.9902
G01 X49.8635 Y32.9838
G01 X49.9183 Y32.9332
G01 X49.9254 Y32.9271
G01 X49.9330 Y32.9216
G01 X49.9409 Y32.9166
G01 X49.9493 Y32.9123
G01 X50.0603 Y32.8593
G01 X50.2264 Y32.7400
G01 X50.3687 Y32.5931
G01 X50.4827 Y32.4234
G01 X50.5649 Y32.2362
G01 X50.6126 Y32.0373
G01 X50.6244 Y31.8332
G01 X50.5998 Y31.6302
G01 X50.5397 Y31.4347
G01 X50.4459 Y31.2530
G01 X50.3214 Y31.0908
G01 X50.1702 Y30.9532
G01 X49.9970 Y30.8445
G01 X49.9588 Y30.8290
G01 X49.9509 Y30.8250
G01 X49.9432 Y30.8205
G01 X49.9335 Y30.8136
G01 X49.8778 Y30.7696
G01 X49.8684 Y30.7614
G01 X49.8579 Y30.7500
G01 X49.8506 Y30.7400
G01 X49.8430 Y30.7265
G01 X49.8380 Y30.7151
G01 X49.8139 Y30.6450
G01 X49.8112 Y30.6361
G01 X49.8082 Y30.6209
G01 X49.8073 Y30.6116
G01 X49.8071 Y30.6023
G01 X49.8079 Y30.5900
G01 X49.8099 Y30.5777
G01 X49.8275 Y30.5057
G01 X49.8300 Y30.4969
G01 X49.8355 Y30.4827
G01 X49.8412 Y30.4719
G01 X49.8479 Y30.4617
G01 X49.8576 Y30.4500
G01 X49.8641 Y30.4435
G01 X49.9189 Y30.3929
G01 X49.9260 Y30.3868
G01 X49.9336 Y30.3813
G01 X49.9416 Y30.3763
G01 X49.9499 Y30.3720
G01 X50.0603 Y30.3193
G01 X50.2264 Y30.2000
G01 X50.3687 Y30.0531
G01 X50.4827 Y29.8834
G01 X50.5649 Y29.6962
G01 X50.6126 Y29.4973
G01 X50.6244 Y29.2932
G01 X50.5998 Y29.0902
G01 X50.5397 Y28.8947
G01 X50.4459 Y28.7130
G01 X50.3214 Y28.5508
G01 X50.1702 Y28.4132
G01 X49.9970 Y28.3045
G01 X49.9588 Y28.2890
G01 X49.9509 Y28.2850
G01 X49.9432 Y28.2805
G01 X49.9335 Y28.2736
G01 X49.8778 Y28.2296
G01 X49.8684 Y28.2214
G01 X49.8579 Y28.2100
G01 X49.8506 Y28.2000
G01 X49.8430 Y28.1865
G01 X49.8380 Y28.1751
G01 X49.8139 Y28.1050
G01 X49.8112 Y28.0961
G01 X49.8091 Y28.0870
G01 X49.8078 Y28.0778
G01 X49.8071 Y28.0623
G01 X49.8079 Y28.0500
G01 X49.8099 Y28.0377
G01 X49.8275 Y27.9657
G01 X49.8300 Y27.9569
G01 X49.8355 Y27.9427
G01 X49.8412 Y27.9319
G01 X49.8479 Y27.9217
G01 X49.8576 Y27.9100
G01 X49.8641 Y27.9035
G01 X49.9189 Y27.8529
G01 X49.9260 Y27.8468
G01 X49.9336 Y27.8413
G01 X49.9416 Y27.8363
G01 X49.9499 Y27.8320
G01 X50.0603 Y27.7793
G01 X50.2264 Y27.6600
G01 X50.3687 Y27.5131
G01 X50.4827 Y27.3434
G01 X50.5649 Y27.1562
G01 X50.6126 Y26.9573
G01 X50.6244 Y26.7532
G01 X50.5998 Y26.5502
G01 X50.5397 Y26.3547
G01 X50.4459 Y26.1730
G01 X50.3214 Y26.0108
G01 X50.1702 Y25.8732
G01 X49.9970 Y25.7645
G01 X49.9588 Y25.7490
G01 X49.9509 Y25.7450
G01 X49.9432 Y25.7405
G01 X49.9335 Y25.7336
G01 X49.8778 Y25.6896
G01 X49.8662 Y25.6793
G01 X49.8560 Y25.6676
G01 X49.8490 Y25.6574
G01 X49.8430 Y25.6465
G01 X49.8380 Y25.6351
G01 X49.8139 Y25.5650
G01 X49.8112 Y25.5561
G01 X49.8082 Y25.5409
G01 X49.8073 Y25.5316
G01 X49.8071 Y25.5223
G01 X49.8079 Y25.5100
G01 X49.8099 Y25.4977
G01 X49.8275 Y25.4257
G01 X49.8300 Y25.4169
G01 X49.8343 Y25.4055
G01 X49.8412 Y25.3919
G01 X49.8479 Y25.3817
G01 X49.8576 Y25.3700
G01 X49.8641 Y25.3635
G01 X49.9189 Y25.3129
G01 X49.9260 Y25.3068
G01 X49.9336 Y25.3013
G01 X49.9416 Y25.2963
G01 X49.9499 Y25.2920
G01 X50.0603 Y25.2393
G01 X50.2264 Y25.1200
G01 X50.3687 Y24.9731
G01 X50.4827 Y24.8034
G01 X50.5649 Y24.6162
G01 X50.6126 Y24.4173
G01 X50.6244 Y24.2132
G01 X50.5998 Y24.0102
G01 X50.5397 Y23.8147
G01 X50.4459 Y23.6330
G01 X50.3214 Y23.4708
G01 X50.1702 Y23.3332
G01 X49.9970 Y23.2245
G01 X49.9582 Y23.2088
G01 X49.9502 Y23.2048
G01 X49.9426 Y23.2002
G01 X49.9329 Y23.1933
G01 X49.8771 Y23.1493
G01 X49.8656 Y23.1390
G01 X49.8573 Y23.1297
G01 X49.8500 Y23.1197
G01 X49.8423 Y23.1062
G01 X49.8374 Y23.0948
G01 X49.8114 Y23.0189
G01 X49.8080 Y23.0037
G01 X49.8069 Y22.9945
G01 X49.8064 Y22.9852
G01 X49.8073 Y22.9697
G01 X49.8093 Y22.9575
G01 X49.8268 Y22.8855
G01 X49.8303 Y22.8738
G01 X49.8362 Y22.8597
G01 X49.8438 Y22.8465
G01 X49.8529 Y22.8343
G01 X49.8613 Y22.8254
G01 X49.9206 Y22.7706
G01 X49.9330 Y22.7610
G01 X49.9409 Y22.7561
G01 X49.9492 Y22.7517
G01 X50.0601 Y22.6989
G01 X50.2260 Y22.5796
G01 X50.3682 Y22.4328
G01 X50.4823 Y22.2632
G01 X50.5590 Y22.0883
G01 X50.2758 Y22.0883
G01 X50.2599 Y22.1220
G01 X50.2556 Y22.1301
G01 X50.2140 Y22.1995
G01 X50.2088 Y22.2071
G01 X50.1643 Y22.2672
G01 X50.1585 Y22.2744
G01 X50.1020 Y22.3365
G01 X50.0422 Y22.3910
G01 X50.0327 Y22.3988
G01 X49.9726 Y22.4433
G01 X49.9651 Y22.4485
G01 X49.8930 Y22.4916
G01 X49.8199 Y22.5263
G01 X49.8086 Y22.5310
G01 X49.7323 Y22.5581
G01 X49.6479 Y22.5793
G01 X49.5679 Y22.5913
G01 X49.5557 Y22.5925
G01 X49.4748 Y22.5963
G01 X48.6958 Y22.5963
G01 X48.6180 Y22.5925
G01 X48.6058 Y22.5913
G01 X48.5258 Y22.5793
G01 X48.4443 Y22.5590
G01 X48.4355 Y22.5562
G01 X48.3594 Y22.5288
G01 X48.2807 Y22.4916
G01 X48.2060 Y22.4468
G01 X48.1410 Y22.3988
G01 X48.1338 Y22.3930
G01 X48.0716 Y22.3365
G01 X48.0172 Y22.2767
G01 X48.0113 Y22.2696
G01 X47.9649 Y22.2071
G01 X47.9596 Y22.1995
G01 X47.9180 Y22.1301
G01 X47.9138 Y22.1220
G01 X47.8979 Y22.0883
G01 X47.6174 Y22.0883
G01 X47.6344 Y22.1437
G01 X47.7282 Y22.3253
G01 X47.8526 Y22.4875
G01 X48.0038 Y22.6250
G01 X48.1769 Y22.7336
G01 X48.2154 Y22.7493
G01 X48.2234 Y22.7533
G01 X48.2311 Y22.7579
G01 X48.2408 Y22.7648
G01 X48.2965 Y22.8087
G01 X48.3059 Y22.8169
G01 X48.3144 Y22.8260
G01 X48.3236 Y22.8384
G01 X48.3299 Y22.8491
G01 X48.3362 Y22.8633
G01 X48.3604 Y22.9333
G01 X48.3631 Y22.9422
G01 X48.3661 Y22.9574
G01 X48.3670 Y22.9667
G01 X48.3672 Y22.9760
G01 X48.3664 Y22.9884
G01 X48.3644 Y23.0006
G01 X48.3468 Y23.0726
G01 X48.3443 Y23.0814
G01 X48.3388 Y23.0956
G01 X48.3331 Y23.1064
G01 X48.3246 Y23.1191
G01 X48.3167 Y23.1284
G01 X48.3102 Y23.1348
G01 X48.2554 Y23.1854
G01 X48.2483 Y23.1915
G01 X48.2407 Y23.1971
G01 X48.2327 Y23.2020
G01 X48.2244 Y23.2064
G01 X48.1134 Y23.2593
G01 X47.9473 Y23.3787
G01 X47.8050 Y23.5255
G01 X47.6910 Y23.6952
G01 X47.6088 Y23.8825
G01 X47.5610 Y24.0813
G01 X47.5493 Y24.2854
G01 X47.5738 Y24.4884
G01 X47.6340 Y24.6839
G01 X47.7277 Y24.8656
G01 X47.8522 Y25.0278
G01 X48.0035 Y25.1654
G01 X48.1767 Y25.2741
G01 X48.2148 Y25.2896
G01 X48.2228 Y25.2936
G01 X48.2305 Y25.2982
G01 X48.2402 Y25.3051
G01 X48.2959 Y25.3490
G01 X48.3052 Y25.3572
G01 X48.3137 Y25.3662
G01 X48.3230 Y25.3787
G01 X48.3307 Y25.3921
G01 X48.3356 Y25.4035
G01 X48.3598 Y25.4736
G01 X48.3625 Y25.4825
G01 X48.3645 Y25.4916
G01 X48.3659 Y25.5008
G01 X48.3666 Y25.5163
G01 X48.3658 Y25.5287
G01 X48.3637 Y25.5409
G01 X48.3462 Y25.6129
G01 X48.3437 Y25.6217
G01 X48.3394 Y25.6331
G01 X48.3325 Y25.6467
G01 X48.3258 Y25.6569
G01 X48.3160 Y25.6687
G01 X48.3096 Y25.6751
G01 X48.2548 Y25.7257
G01 X48.2476 Y25.7318
G01 X48.2401 Y25.7373
G01 X48.2321 Y25.7423
G01 X48.2238 Y25.7467
G01 X48.1134 Y25.7993
G01 X47.9473 Y25.9187
G01 X47.8050 Y26.0655
G01 X47.6910 Y26.2352
G01 X47.6088 Y26.4225
G01 X47.5610 Y26.6213
G01 X47.5493 Y26.8254
G01 X47.5738 Y27.0284
G01 X47.6340 Y27.2239
G01 X47.7277 Y27.4056
G01 X47.8522 Y27.5678
G01 X48.0035 Y27.7054
G01 X48.1767 Y27.8141
G01 X48.2148 Y27.8296
G01 X48.2228 Y27.8336
G01 X48.2305 Y27.8382
G01 X48.2402 Y27.8451
G01 X48.2959 Y27.8890
G01 X48.3052 Y27.8972
G01 X48.3157 Y27.9086
G01 X48.3230 Y27.9187
G01 X48.3293 Y27.9294
G01 X48.3356 Y27.9435
G01 X48.3598 Y28.0136
G01 X48.3625 Y28.0225
G01 X48.3655 Y28.0377
G01 X48.3664 Y28.0470
G01 X48.3666 Y28.0563
G01 X48.3658 Y28.0687
G01 X48.3637 Y28.0809
G01 X48.3462 Y28.1529
G01 X48.3437 Y28.1617
G01 X48.3381 Y28.1759
G01 X48.3325 Y28.1867
G01 X48.3258 Y28.1969
G01 X48.3160 Y28.2087
G01 X48.3096 Y28.2151
G01 X48.2548 Y28.2657
G01 X48.2476 Y28.2718
G01 X48.2401 Y28.2773
G01 X48.2321 Y28.2823
G01 X48.2238 Y28.2867
G01 X48.1134 Y28.3393
G01 X47.9473 Y28.4587
G01 X47.8050 Y28.6055
G01 X47.6910 Y28.7752
G01 X47.6088 Y28.9625
G01 X47.5610 Y29.1613
G01 X47.5493 Y29.3654
G01 X47.5738 Y29.5684
G01 X47.6340 Y29.7639
G01 X47.7277 Y29.9456
G01 X47.8522 Y30.1078
G01 X48.0035 Y30.2454
G01 X48.1767 Y30.3541
G01 X48.2148 Y30.3696
G01 X48.2228 Y30.3736
G01 X48.2305 Y30.3782
G01 X48.2402 Y30.3851
G01 X48.2959 Y30.4290
G01 X48.3030 Y30.4351
G01 X48.3096 Y30.4416
G01 X48.3176 Y30.4511
G01 X48.3230 Y30.4587
G01 X48.3278 Y30.4666
G01 X48.3320 Y30.4749
G01 X48.3367 Y30.4865
G01 X48.3598 Y30.5536
G01 X48.3639 Y30.5685
G01 X48.3659 Y30.5808
G01 X48.3666 Y30.5963
G01 X48.3658 Y30.6087
G01 X48.3630 Y30.6240
G01 X48.3462 Y30.6929
G01 X48.3427 Y30.7046
G01 X48.3381 Y30.7159
G01 X48.3325 Y30.7267
G01 X48.3258 Y30.7369
G01 X48.3160 Y30.7487
G01 X48.3096 Y30.7551
G01 X48.2548 Y30.8057
G01 X48.2476 Y30.8118
G01 X48.2401 Y30.8173
G01 X48.2321 Y30.8223
G01 X48.2238 Y30.8267
G01 X48.1134 Y30.8793
G01 X47.9473 Y30.9987
G01 X47.8050 Y31.1455
G01 X47.6910 Y31.3152
G01 X47.6635 Y31.3778
G01 X47.6584 Y31.3882
G01 X47.6523 Y31.3980
G01 X47.6260 Y31.4365
G01 X47.6208 Y31.4435
G01 X47.6152 Y31.4501
G01 X46.3399 Y32.7256
G01 X46.3185 Y32.7444
G01 X46.3053 Y32.7546
G01 X46.2786 Y32.7860
G01 X46.2659 Y32.7996
G01 X46.2485 Y32.8214
G01 X46.2082 Y32.8689
G01 X46.1975 Y32.8856
G01 X46.1711 Y32.9421
G01 X46.1409 Y33.0015
G01 X46.1342 Y33.0202
G01 X46.1206 Y33.0855
G01 X46.1053 Y33.1481
G01 X46.1037 Y33.1657
G01 X46.1055 Y33.2371
G01 X46.1055 Y35.0711
G01 X46.1042 Y35.0859
G01 X46.1013 Y35.1005
G01 X46.0804 Y35.1715
G01 X46.0764 Y35.1831
G01 X46.0698 Y35.1969
G01 X46.0633 Y35.2073
G01 X46.0578 Y35.2147
G01 X46.0388 Y35.2382
G01 X46.0320 Y35.2456
G01 X33.1740 Y48.1036
G01 X33.1527 Y48.1224
G01 X33.1394 Y48.1326
G01 X33.1128 Y48.1639
G01 X33.1000 Y48.1776
G01 X33.0827 Y48.1994
G01 X33.0424 Y48.2468
G01 X33.0316 Y48.2636
G01 X33.0033 Y48.3239
G01 X32.9750 Y48.3794
G01 X32.9684 Y48.3982
G01 X32.9547 Y48.4634
G01 X32.9394 Y48.5260
G01 X32.9378 Y48.5437
G01 X32.9397 Y48.6133
G01 X32.9397 Y48.6654
G01 X32.9391 Y48.6773
G01 X32.9379 Y48.6862
G01 X32.9354 Y48.6978
G01 X32.9137 Y48.7717
G01 X32.9093 Y48.7833
G01 X32.9038 Y48.7945
G01 X32.8972 Y48.8050
G01 X32.8876 Y48.8171
G01 X32.8765 Y48.8280
G01 X32.8229 Y48.8745
G01 X32.8156 Y48.8803
G01 X32.8053 Y48.8872
G01 X32.7915 Y48.8944
G01 X32.7799 Y48.8988
G01 X32.7680 Y48.9021
G01 X32.7588 Y48.9038
G01 X32.6855 Y48.9143
G01 X32.6764 Y48.9150
G01 X32.6643 Y48.9150
G01 X32.6552 Y48.9142
G01 X32.6432 Y48.9121
G01 X32.6344 Y48.9098
G01 X32.6258 Y48.9068
G01 X32.6174 Y48.9032
G01 X32.5506 Y48.8717
G01 X32.5370 Y48.8642
G01 X32.5293 Y48.8590
G01 X32.5197 Y48.8511
G01 X32.3902 Y48.7332
G01 X32.2170 Y48.6245
G01 X32.1782 Y48.6088
G01 X32.1702 Y48.6048
G01 X32.1626 Y48.6002
G01 X32.1529 Y48.5933
G01 X32.0971 Y48.5493
G01 X32.0901 Y48.5433
G01 X32.0793 Y48.5321
G01 X32.0717 Y48.5223
G01 X32.0637 Y48.5090
G01 X32.0585 Y48.4977
G01 X32.0314 Y48.4189
G01 X32.0280 Y48.4037
G01 X32.0265 Y48.3883
G01 X32.0267 Y48.3759
G01 X32.0287 Y48.3605
G01 X32.0468 Y48.2855
G01 X32.0493 Y48.2767
G01 X32.0549 Y48.2625
G01 X32.0621 Y48.2490
G01 X32.0710 Y48.2366
G01 X32.0813 Y48.2254
G01 X32.1406 Y48.1706
G01 X32.1530 Y48.1610
G01 X32.1609 Y48.1561
G01 X32.1692 Y48.1517
G01 X32.2801 Y48.0989
G01 X32.4460 Y47.9796
G01 X32.5882 Y47.8328
G01 X32.7023 Y47.6632
G01 X32.7790 Y47.4883
G01 X32.4958 Y47.4883
G01 X32.4799 Y47.5220
G01 X32.4756 Y47.5301
G01 X32.4340 Y47.5995
G01 X32.4288 Y47.6071
G01 X32.3843 Y47.6672
G01 X32.3785 Y47.6744
G01 X32.3220 Y47.7365
G01 X32.2622 Y47.7910
G01 X32.2527 Y47.7988
G01 X32.1926 Y47.8433
G01 X32.1851 Y47.8485
G01 X32.1130 Y47.8916
G01 X32.0399 Y47.9263
G01 X32.0286 Y47.9310
G01 X31.9523 Y47.9581
G01 X31.8679 Y47.9793
G01 X31.7879 Y47.9913
G01 X31.7757 Y47.9925
G01 X31.6948 Y47.9963
G01 X30.9158 Y47.9963
G01 X30.8380 Y47.9925
G01 X30.8258 Y47.9913
G01 X30.7458 Y47.9793
G01 X30.6643 Y47.9590
G01 X30.6555 Y47.9562
G01 X30.5794 Y47.9288
G01 X30.5007 Y47.8916
G01 X30.4260 Y47.8468
G01 X30.3610 Y47.7988
G01 X30.3538 Y47.7930
G01 X30.2916 Y47.7365
G01 X30.2372 Y47.6767
G01 X30.2313 Y47.6696
G01 X30.1849 Y47.6071
G01 X30.1796 Y47.5995
G01 X30.1380 Y47.5301
G01 X30.1338 Y47.5220
G01 X30.1179 Y47.4883
G01 X29.8374 Y47.4883
G01 X29.8544 Y47.5437
G01 X29.9482 Y47.7253
G01 X30.0726 Y47.8875
G01 X30.2238 Y48.0250
G01 X30.3969 Y48.1336
G01 X30.4354 Y48.1493
G01 X30.4434 Y48.1533
G01 X30.4511 Y48.1579
G01 X30.4608 Y48.1648
G01 X30.5165 Y48.2087
G01 X30.5236 Y48.2148
G01 X30.5323 Y48.2236
G01 X30.5401 Y48.2333
G01 X30.5469 Y48.2437
G01 X30.5539 Y48.2575
G01 X30.5573 Y48.2662
G01 X30.5814 Y48.3362
G01 X30.5839 Y48.3452
G01 X30.5857 Y48.3544
G01 X30.5868 Y48.3636
G01 X30.5872 Y48.3729
G01 X30.5870 Y48.3822
G01 X30.5855 Y48.3945
G01 X30.5837 Y48.4037
G01 X30.5652 Y48.4785
G01 X30.5600 Y48.4929
G01 X30.5561 Y48.5011
G01 X30.5515 Y48.5090
G01 X30.5427 Y48.5215
G01 X30.5324 Y48.5327
G01 X30.4731 Y48.5875
G01 X30.4607 Y48.5971
G01 X30.4527 Y48.6020
G01 X30.4444 Y48.6064
G01 X30.3334 Y48.6593
G01 X30.1673 Y48.7787
G01 X30.1363 Y48.8106
G01 X30.1297 Y48.8166
G01 X30.1227 Y48.8222
G01 X30.1103 Y48.8303
G01 X30.0458 Y48.8668
G01 X30.0373 Y48.8709
G01 X30.0286 Y48.8743
G01 X30.0136 Y48.8786
G01 X30.0043 Y48.8803
G01 X29.9725 Y48.8840
G01 X29.9582 Y48.8848
G01 X27.7612 Y48.8848
G01 X27.7514 Y48.8844
G01 X27.7317 Y48.8829
G01 X27.7215 Y48.8817
G01 X27.6678 Y48.8845
G01 X27.6412 Y48.8848
G01 X27.6147 Y48.8873
G01 X27.5610 Y48.8901
G01 X27.5510 Y48.8924
G01 X27.5284 Y48.8965
G01 X27.5215 Y48.8974
G01 X27.4672 Y48.9150
G01 X27.4058 Y48.9317
G01 X27.3995 Y48.9347
G01 X27.3783 Y48.9435
G01 X27.3686 Y48.9471
G01 X27.3134 Y48.9787
G01 X27.2616 Y49.0052
G01 X27.2490 Y49.0134
G01 X27.2382 Y49.0193
G01 X27.2241 Y49.0252
G01 X27.2096 Y49.0292
G01 X27.1714 Y49.0451
G01 X27.1566 Y49.0498
G01 X27.1444 Y49.0522
G01 X27.1352 Y49.0532
G01 X27.1227 Y49.0535
G01 X27.1134 Y49.0529
G01 X27.1042 Y49.0516
G01 X27.0343 Y49.0392
G01 X27.0222 Y49.0364
G01 X27.0105 Y49.0325
G01 X26.9992 Y49.0273
G01 X26.9884 Y49.0211
G01 X26.9783 Y49.0139
G01 X26.9713 Y49.0078
G01 X26.9169 Y48.9574
G01 X26.9105 Y48.9507
G01 X26.9046 Y48.9435
G01 X26.8993 Y48.9359
G01 X26.8930 Y48.9251
G01 X26.8891 Y48.9167
G01 X26.8858 Y48.9080
G01 X26.8831 Y48.8991
G01 X26.8647 Y48.8273
G01 X26.8621 Y48.8120
G01 X26.8615 Y48.8027
G01 X26.8616 Y48.7934
G01 X26.8632 Y48.7780
G01 X26.8651 Y48.7689
G01 X26.8677 Y48.7599
G01 X26.8900 Y48.6925
G01 X26.8958 Y48.6780
G01 X26.9018 Y48.6670
G01 X26.9069 Y48.6591
G01 X26.9127 Y48.6517
G01 X26.9291 Y48.6320
G01 X26.9349 Y48.6258
G01 X29.9910 Y45.5697
G01 X30.0021 Y45.5599
G01 X30.0093 Y45.5546
G01 X30.0169 Y45.5499
G01 X30.0818 Y45.5144
G01 X30.0958 Y45.5078
G01 X30.1076 Y45.5038
G01 X30.1197 Y45.5011
G01 X30.1320 Y45.4995
G01 X30.1444 Y45.4991
G01 X30.2244 Y45.5047
G01 X30.2364 Y45.5065
G01 X30.2510 Y45.5103
G01 X30.2651 Y45.5158
G01 X30.2907 Y45.5284
G01 X30.2991 Y45.5329
G01 X30.3967 Y45.5941
G01 X30.4355 Y45.6098
G01 X30.4460 Y45.6153
G01 X30.4560 Y45.6218
G01 X30.5165 Y45.6693
G01 X30.5236 Y45.6753
G01 X30.5323 Y45.6842
G01 X30.5383 Y45.6913
G01 X30.5437 Y45.6989
G01 X30.5499 Y45.7096
G01 X30.5539 Y45.7180
G01 X30.5573 Y45.7267
G01 X30.5804 Y45.7938
G01 X30.5839 Y45.8058
G01 X30.5861 Y45.8180
G01 X30.5872 Y45.8334
G01 X30.5867 Y45.8458
G01 X30.5844 Y45.8612
G01 X30.5661 Y45.9361
G01 X30.5612 Y45.9506
G01 X30.5561 Y45.9616
G01 X30.5482 Y45.9747
G01 X30.5407 Y45.9844
G01 X30.5302 Y45.9954
G01 X30.4731 Y46.0480
G01 X30.4607 Y46.0576
G01 X30.4527 Y46.0626
G01 X30.4444 Y46.0669
G01 X30.3336 Y46.1198
G01 X30.1677 Y46.2390
G01 X30.0254 Y46.3858
G01 X29.9114 Y46.5555
G01 X29.8347 Y46.7303
G01 X30.1179 Y46.7303
G01 X30.1338 Y46.6967
G01 X30.1380 Y46.6885
G01 X30.1796 Y46.6191
G01 X30.1849 Y46.6115
G01 X30.2294 Y46.5514
G01 X30.2351 Y46.5443
G01 X30.2916 Y46.4821
G01 X30.3515 Y46.4277
G01 X30.3610 Y46.4199
G01 X30.4210 Y46.3753
G01 X30.4286 Y46.3701
G01 X30.5007 Y46.3271
G01 X30.5738 Y46.2923
G01 X30.5851 Y46.2876
G01 X30.6614 Y46.2605
G01 X30.7458 Y46.2394
G01 X30.8258 Y46.2273
G01 X30.8380 Y46.2261
G01 X30.9188 Y46.2223
G01 X31.6979 Y46.2224
G01 X31.7757 Y46.2261
G01 X31.7879 Y46.2273
G01 X31.8679 Y46.2394
G01 X31.9494 Y46.2597
G01 X31.9581 Y46.2624
G01 X32.0343 Y46.2898
G01 X32.1130 Y46.3271
G01 X32.1876 Y46.3718
G01 X32.2527 Y46.4199
G01 X32.2599 Y46.4256
G01 X32.3220 Y46.4821
G01 X32.3765 Y46.5420
G01 X32.3824 Y46.5490
G01 X32.4288 Y46.6115
G01 X32.4340 Y46.6191
G01 X32.4756 Y46.6885
G01 X32.4799 Y46.6967
G01 X32.4958 Y46.7303
G01 X32.7763 Y46.7303
G01 X32.7592 Y46.6749
G01 X32.6655 Y46.4933
G01 X32.5411 Y46.3312
G01 X32.3899 Y46.1936
G01 X32.2168 Y46.0850
G01 X32.1782 Y46.0693
G01 X32.1703 Y46.0653
G01 X32.1626 Y46.0608
G01 X32.1529 Y46.0539
G01 X32.0972 Y46.0099
G01 X32.0878 Y46.0017
G01 X32.0773 Y45.9903
G01 X32.0700 Y45.9803
G01 X32.0637 Y45.9696
G01 X32.0574 Y45.9554
G01 X32.0333 Y45.8853
G01 X32.0306 Y45.8764
G01 X32.0276 Y45.8612
G01 X32.0267 Y45.8519
G01 X32.0265 Y45.8426
G01 X32.0273 Y45.8302
G01 X32.0293 Y45.8180
G01 X32.0469 Y45.7460
G01 X32.0493 Y45.7372
G01 X32.0537 Y45.7258
G01 X32.0606 Y45.7122
G01 X32.0691 Y45.6996
G01 X32.0770 Y45.6902
G01 X32.0835 Y45.6838
G01 X32.1383 Y45.6332
G01 X32.1454 Y45.6271
G01 X32.1530 Y45.6216
G01 X32.1609 Y45.6166
G01 X32.1693 Y45.6123
G01 X32.2803 Y45.5593
G01 X32.4464 Y45.4400
G01 X32.5887 Y45.2931
G01 X32.7027 Y45.1234
G01 X32.7849 Y44.9362
G01 X32.8326 Y44.7373
G01 X32.8444 Y44.5332
G01 X32.8198 Y44.3302
G01 X32.7597 Y44.1347
G01 X32.6659 Y43.9530
G01 X32.5414 Y43.7908
G01 X32.3902 Y43.6532
G01 X32.2170 Y43.5445
G01 X32.1788 Y43.5290
G01 X32.1709 Y43.5250
G01 X32.1632 Y43.5205
G01 X32.1535 Y43.5136
G01 X32.0978 Y43.4696
G01 X32.0884 Y43.4614
G01 X32.0779 Y43.4500
G01 X32.0706 Y43.4400
G01 X32.0630 Y43.4265
G01 X32.0580 Y43.4151
G01 X32.0339 Y43.3450
G01 X32.0312 Y43.3361
G01 X32.0282 Y43.3209
G01 X32.0273 Y43.3116
G01 X32.0271 Y43.3023
G01 X32.0279 Y43.2900
G01 X32.0299 Y43.2777
G01 X32.0475 Y43.2057
G01 X32.0500 Y43.1969
G01 X32.0543 Y43.1855
G01 X32.0612 Y43.1719
G01 X32.0679 Y43.1617
G01 X32.0776 Y43.1500
G01 X32.0841 Y43.1435
G01 X32.1389 Y43.0929
G01 X32.1460 Y43.0868
G01 X32.1536 Y43.0813
G01 X32.1616 Y43.0763
G01 X32.1699 Y43.0720
G01 X32.2803 Y43.0193
G01 X32.4464 Y42.9000
G01 X32.5887 Y42.7531
G01 X32.7027 Y42.5834
G01 X32.7849 Y42.3962
G01 X32.8326 Y42.1973
G01 X32.8444 Y41.9932
G01 X32.8198 Y41.7902
G01 X32.7597 Y41.5947
G01 X32.6659 Y41.4130
G01 X32.5414 Y41.2508
G01 X32.3902 Y41.1132
G01 X32.2170 Y41.0045
G01 X32.1788 Y40.9890
G01 X32.1709 Y40.9850
G01 X32.1632 Y40.9805
G01 X32.1535 Y40.9736
G01 X32.0978 Y40.9296
G01 X32.0884 Y40.9214
G01 X32.0779 Y40.9100
G01 X32.0706 Y40.9000
G01 X32.0644 Y40.8893
G01 X32.0580 Y40.8751
G01 X32.0339 Y40.8050
G01 X32.0312 Y40.7961
G01 X32.0282 Y40.7809
G01 X32.0273 Y40.7716
G01 X32.0271 Y40.7623
G01 X32.0279 Y40.7500
G01 X32.0299 Y40.7377
G01 X32.0475 Y40.6657
G01 X32.0500 Y40.6569
G01 X32.0543 Y40.6455
G01 X32.0612 Y40.6319
G01 X32.0679 Y40.6217
G01 X32.0776 Y40.6100
G01 X32.0841 Y40.6035
G01 X32.1389 Y40.5529
G01 X32.1460 Y40.5468
G01 X32.1536 Y40.5413
G01 X32.1616 Y40.5363
G01 X32.1699 Y40.5320
G01 X32.2803 Y40.4793
G01 X32.4464 Y40.3600
G01 X32.5887 Y40.2131
G01 X32.7027 Y40.0434
G01 X32.7849 Y39.8562
G01 X32.8326 Y39.6573
G01 X32.8444 Y39.4532
G01 X32.8198 Y39.2502
G01 X32.7597 Y39.0547
G01 X32.6659 Y38.8730
G01 X32.5414 Y38.7108
G01 X32.3902 Y38.5732
G01 X32.2170 Y38.4645
G01 X32.1788 Y38.4490
G01 X32.1709 Y38.4450
G01 X32.1632 Y38.4405
G01 X32.1535 Y38.4336
G01 X32.0978 Y38.3896
G01 X32.0862 Y38.3793
G01 X32.0779 Y38.3700
G01 X32.0690 Y38.3574
G01 X32.0630 Y38.3465
G01 X32.0580 Y38.3351
G01 X32.0339 Y38.2650
G01 X32.0312 Y38.2561
G01 X32.0282 Y38.2409
G01 X32.0273 Y38.2316
G01 X32.0271 Y38.2223
G01 X32.0279 Y38.2100
G01 X32.0299 Y38.1977
G01 X32.0475 Y38.1257
G01 X32.0500 Y38.1169
G01 X32.0555 Y38.1027
G01 X32.0612 Y38.0919
G01 X32.0679 Y38.0817
G01 X32.0776 Y38.0700
G01 X32.0841 Y38.0635
G01 X32.1389 Y38.0129
G01 X32.1460 Y38.0068
G01 X32.1536 Y38.0013
G01 X32.1616 Y37.9963
G01 X32.1699 Y37.9920
G01 X32.2803 Y37.9393
G01 X32.4464 Y37.8200
G01 X32.5887 Y37.6731
G01 X32.7027 Y37.5034
G01 X32.7849 Y37.3162
G01 X32.8326 Y37.1173
G01 X32.8444 Y36.9132
G01 X32.8198 Y36.7102
G01 X32.7597 Y36.5147
G01 X32.6659 Y36.3330
G01 X32.5414 Y36.1708
G01 X32.3902 Y36.0332
G01 X32.2170 Y35.9245
G01 X32.1782 Y35.9088
G01 X32.1702 Y35.9048
G01 X32.1626 Y35.9002
G01 X32.1529 Y35.8933
G01 X32.0971 Y35.8493
G01 X32.0856 Y35.8390
G01 X32.0754 Y35.8273
G01 X32.0683 Y35.8171
G01 X32.0623 Y35.8062
G01 X32.0574 Y35.7948
G01 X32.0314 Y35.7189
G01 X32.0280 Y35.7037
G01 X32.0269 Y35.6945
G01 X32.0264 Y35.6852
G01 X32.0273 Y35.6697
G01 X32.0293 Y35.6575
G01 X32.0468 Y35.5855
G01 X32.0503 Y35.5738
G01 X32.0562 Y35.5597
G01 X32.0638 Y35.5465
G01 X32.0729 Y35.5343
G01 X32.0813 Y35.5254
G01 X32.1406 Y35.4706
G01 X32.1530 Y35.4610
G01 X32.1609 Y35.4561
G01 X32.1692 Y35.4517
G01 X32.2801 Y35.3989
G01 X32.4460 Y35.2796
G01 X32.5882 Y35.1328
G01 X32.7023 Y34.9632
G01 X32.7790 Y34.7883
G01 X32.4958 Y34.7883
G01 X32.4799 Y34.8220
G01 X32.4756 Y34.8301
G01 X32.4340 Y34.8995
